!!!!SEGMENT: pl-cz--iii-753--001-013_zebrowski-marcin-jozef--vesperae-in-d-quia-respexit.krn
!!!cenid: 17xx:2384
!!!COM: Żebrowski, Marcin Józef
!!!COM-rismID: pe30020322
!!!CDT: 1702-1770/06/29
!!!CNT: Polish
!!!OPR: Vesperae in D
!!!OTL: Quia respexit
!!!OMV: 013
!!!PDT:
!!!AGN:
!!!SMS-siglum: PL-CZ
!!!SMS-shelfmark: III-753
!!!SMS-shelfwork: 001-013 M
!!!SMS-variant:
!!!SMS-altvar:
!!!NIFC-rismSourceID: 300033504
!!!NIFC-rismChildID: 300033505
!!!NIFC-islandoraID: pl-cz:25492
!!!URL-pdf-islandora: https://repozytorium.nifc.pl/islandora/object/pl-cz%3A25492/datastream/PDF/view
!!!URL-scan: https://polish.musicsources.pl/pl/lokalizacje/galeria/rekopisy/1484 @EN{Scan on Polish Music Sources Website} @PL{Skany w portalu Dziedzictwo Muzyki Polskiej w otwartym dostępie}
!!!ONB-nifc: UWAGA: części Nieszporów: 1. Dixit Dominus, 2. Confitebor, 3. Beatus vir, 4. Laudate pueri, 5. Laudate Dominum, 6. Credidi, 7. In convertendo, 8. Domine probasti me, 9. Laetatus sum, 10. Nisi Dominus, 11. Lauda Jerusalem, 12. Magnificat, 13. Quia respexit, 14. Deposuit potentes, 15. Gloria patri
!!!AIN: 1 alto 1 bass 2 clrno 1 fagot 1 organ 1 soprn 1 tenor 2 violn
!!!OMD:
!!!OMD-mod: Andante
!!!key: G
**kern	**fba	**dynam	**kern	**dynam	**kern	**dynam	**kern	**kern	**kern	**kern	**text	**kern	**kern	**kern	**dynam
*	*	*	*group3	*	*group3	*	*group2	*group2	*group2	*group2	*	*group1	*group1	*	*
*part10	*part10	*part10	*part9	*part9	*part8	*part8	*part7	*part6	*part5	*part4	*part4	*part3	*part2	*part1	*part1
*staff10	*	*	*staff9	*	*staff8	*	*staff7	*staff6	*staff5	*staff4	*staff4	*staff3	*staff2	*staff1	*
*I"Organo.	*	*	*I"Violino Secondo.	*	*I"Violino Primo.	*	*I"Baſso.	*I"Tenore.	*I"Alto.	*I"Canto.	*	*I"Clarino Secondo ex D.	*I"Clarino Primo ex D	*I"Baſsone.	*
*mI"Organo	*	*	*mI"Violino II	*	*mI"Violino I	*	*mI"Basso	*mI"Tenore	*mI"Alto	*mI"Soprano	*	*mI"Clarino II in D	*mI"Clarino I in D	*mI"Fagotto	*
*I'org	*	*	*I'vl 2	*	*I'vl 1	*	*I'B	*I'T	*I'A	*I'S	*	*I'clno 2 in D	*I'clno 1 in D	*I'fag	*
*Iorgan	*	*	*Ivioln	*	*Ivioln	*	*Ibass	*Itenor	*Ialto	*Isoprn	*	*Iclrno	*Iclrno	*Ifagot	*
*ICklav	*	*	*ICstr	*	*ICstr	*	*ICvox	*ICvox	*ICvox	*ICvox	*	*ICbras	*ICbras	*ICww	*
*	*	*	*	*	*	*	*tacet	*tacet	*tacet	*	*	*tacet	*tacet	*	*
*clefF4	*	*	*clefG2	*	*clefG2	*	*clefF4	*clefC4	*clefC3	*clefC1	*	*clefG2	*clefG2	*clefF4	*
*	*	*	*	*	*	*	*	*mclefGv2	*mclefG2	*mclefG2	*	*	*	*	*
*k[f#]	*	*	*k[f#]	*	*k[f#]	*	*k[f#]	*k[f#]	*k[f#]	*k[f#]	*	*k[f#]	*k[f#]	*k[f#]	*
*G:	*	*	*G:	*	*G:	*	*G:	*G:	*G:	*G:	*	*G:	*G:	*G:	*
*M3/4	*	*	*M3/4	*	*M3/4	*	*M3/4	*M3/4	*M3/4	*M3/4	*	*M3/4	*M3/4	*M3/4	*
=1	=1	=1	=1	=1	=1	=1	=1	=1	=1	=1	=1	=1	=1	=1	=1
*2\right	*	*	*	*	*	*	*	*	*	*	*	*	*	*2\right	*
!	!	!	!	!	!	!	!	!	!	!LO:TX:a:t=21.:mod=	!	!	!	!	!
!	!	!	!LO:TX:b:i:t=Andante:mod=	!	!	!	!	!	!	!LO:TX:b:i:t=Solo.:mod=	!	!	!	!	!
!LO:TX:b:i:t=Andante. Solo.:mod=	!	!	!LO:TX:a:t=1.:mod=	!	!LO:TX:b:Bi:t=Andante.:mod=	!	!LO:TX:a:i:t=Quia respexit tacet.:mod=	!LO:TX:a:i:t=Quia respexit et reliqua tacent.:mod=	!LO:TX:a:i:t=Quia respexit et reliqua tacent:mod=	!LO:TX:a:i:t=Andante.:mod=	!	!LO:TX:a:i:t=Quia respexit et religua tacet.:mod=	!LO:TX:a:i:t=Quia respexit et reliqua tacent.:mod=	!LO:TX:a:i:t=Andante Solo.:mod=	!
2G\	.	.	2.r	.	8r	.	2.ryy	2.ryy	2.ryy	0.r	.	2.ryy	2.ryy	2G\	.
.	.	.	.	.	8g/L|	.	.	.	.	.	.	.	.	.	.
.	.	.	.	.	8b/|	.	.	.	.	.	.	.	.	.	.
.	.	.	.	.	8dd/J|	.	.	.	.	.	.	.	.	.	.
4GG/	.	.	.	.	(32cc\KLL	.	.	.	.	.	.	.	.	4GG/	.
.	.	.	.	.	16.b\JJ)	.	.	.	.	.	.	.	.	.	.
.	.	.	.	.	(32a/KLL	.	.	.	.	.	.	.	.	.	.
.	.	.	.	.	16.g/JJ)	.	.	.	.	.	.	.	.	.	.
=2	=2	=2	=2	=2	=2	=2	=2	=2	=2	=2	=2	=2	=2	=2	=2
4D\	.	.	8r	.	(4f#/	.	2.ryy	2.ryy	2.ryy	.	.	2.ryy	2.ryy	4D\	.
.	.	.	8a\L|	.	.	.	.	.	.	.	.	.	.	.	.
4E\	6	.	8cc\|	.	4g/)	.	.	.	.	.	.	.	.	4E\	.
.	.	.	8ee\J|	.	.	.	.	.	.	.	.	.	.	.	.
4F#\	6 5	.	(32dd\KLL	.	4a/|	.	.	.	.	.	.	.	.	4F#\	.
.	.	.	16.cc\JJ)	.	.	.	.	.	.	.	.	.	.	.	.
.	.	.	(32b\KLL	.	.	.	.	.	.	.	.	.	.	.	.
.	.	.	16.a\JJ)	.	.	.	.	.	.	.	.	.	.	.	.
=3	=3	=3	=3	=3	=3	=3	=3	=3	=3	=3	=3	=3	=3	=3	=3
!	!	!	!	!	!LO:TX:t=P:problem=mixed beam	!	!	!	!	!	!	!	!	!	!
4G\	.	.	8.b\L	.	8.d/L	.	2.ryy	2.ryy	2.ryy	.	.	2.ryy	2.ryy	4G\	.
.	.	.	16bb\Jk	.	16ddd\Jk	.	.	.	.	.	.	.	.	.	.
4r	.	.	(4bb\	.	(4ddd\	.	.	.	.	.	.	.	.	4r	.
4G\	.	.	8aa\L)	.	8ccc\L)	.	.	.	.	.	.	.	.	4G\	.
.	.	.	8gg\J|	.	8bb\J|	.	.	.	.	.	.	.	.	.	.
=4	=4	=4	=4	=4	=4	=4	=4	=4	=4	=4	=4	=4	=4	=4	=4
4d\	.	.	8.ff#\L	.	8.aa\L	.	2.ryy	2.ryy	2.ryy	.	.	2.ryy	2.ryy	4d\	.
.	.	.	16a\Jk	.	16cc\Jk	.	.	.	.	.	.	.	.	.	.
4r	.	.	(4.aT/	.	(4.ccT\	.	.	.	.	.	.	.	.	4r	.
4D/	7	.	.	.	.	.	.	.	.	.	.	.	.	4D/	.
.	.	.	16g/LL	.	16b/LL	.	.	.	.	.	.	.	.	.	.
.	.	.	16f#/JJ)	.	16a/JJ)	.	.	.	.	.	.	.	.	.	.
!	!	!	!	!	!LO:LB:g=original	!	!	!	!	!	!	!	!	!	!
=5	=5	=5	=5	=5	=5	=5	=5	=5	=5	=5	=5	=5	=5	=5	=5
2G\	.	.	8.g/L	.	8.b\L	.	2.ryy	2.ryy	2.ryy	0.r	.	2.ryy	2.ryy	2G\	.
.	.	.	16b/Jk	.	16dd\Jk	.	.	.	.	.	.	.	.	.	.
.	.	.	(4b/	.	(4dd\	.	.	.	.	.	.	.	.	.	.
4GG/	.	.	8a/L)	.	8cc\L)	.	.	.	.	.	.	.	.	4GG/	.
.	.	.	8g/J|	.	8b\J|	.	.	.	.	.	.	.	.	.	.
=6	=6	=6	=6	=6	=6	=6	=6	=6	=6	=6	=6	=6	=6	=6	=6
!	!	!	!LO:TUP:b:problem:łuczek zamiast numeru	!	!LO:TUP:b:problem:klamra łukowa	!	!	!	!	!	!	!	!	!	!
8r	6 4	.	12g/L	.	12b/L	.	2.ryy	2.ryy	2.ryy	.	.	2.ryy	2.ryy	8r	.
.	.	.	12f#/	.	12a/	.	.	.	.	.	.	.	.	.	.
8D\L	.	.	.	.	.	.	.	.	.	.	.	.	.	8D\L	.
.	.	.	12g/J	.	12b/J	.	.	.	.	.	.	.	.	.	.
8F#\	6	.	4f#/	.	4a/	.	.	.	.	.	.	.	.	8F#\	.
8A\J	.	.	.	.	.	.	.	.	.	.	.	.	.	8A\J	.
(16d\LL	.	.	4r	.	4r	.	.	.	.	.	.	.	.	(16d\LL	.
16c\)	.	.	.	.	.	.	.	.	.	.	.	.	.	16c\)	.
(16B\	.	.	.	.	.	.	.	.	.	.	.	.	.	(16B\	.
16A\JJ)	.	.	.	.	.	.	.	.	.	.	.	.	.	16A\JJ)	.
=7	=7	=7	=7	=7	=7	=7	=7	=7	=7	=7	=7	=7	=7	=7	=7
!	!	!	!LO:TX:a:t=1.:mod=	!	!	!	!	!	!	!	!	!	!	!	!
4B\	6	.	2.r	.	8r	.	2.ryy	2.ryy	2.ryy	.	.	2.ryy	2.ryy	4B\	.
.	.	.	.	.	8g/L|	.	.	.	.	.	.	.	.	.	.
4G\	.	.	.	.	8b/|	.	.	.	.	.	.	.	.	4G\	.
.	.	.	.	.	8dd/J|	.	.	.	.	.	.	.	.	.	.
4B\	.	.	.	.	(32gg\KLL	.	.	.	.	.	.	.	.	4B\	.
.	.	.	.	.	16.ffn\JJ)	.	.	.	.	.	.	.	.	.	.
.	.	.	.	.	(32ee\KLL	.	.	.	.	.	.	.	.	.	.
.	.	.	.	.	16.dd\JJ)	.	.	.	.	.	.	.	.	.	.
=8	=8	=8	=8	=8	=8	=8	=8	=8	=8	=8	=8	=8	=8	=8	=8
4c\	.	.	8r	.	8ee\	.	2.ryy	2.ryy	2.ryy	.	.	2.ryy	2.ryy	4c\	.
!	!	!	!LO:SIC:s=8cL|	!	!	!	!	!	!	!	!	!	!	!	!
.	.	.	8c/L	.	4ee\	.	.	.	.	.	.	.	.	.	.
!	!	!	!LO:SIC:s=8e|	!	!	!	!	!	!	!	!	!	!	!	!
4C/	.	.	8e/	.	.	.	.	.	.	.	.	.	.	4C/	.
!	!	!	!LO:SIC:s=8gJ|	!	!	!	!	!	!	!	!	!	!	!	!
.	.	.	8g/J	.	4ee\	.	.	.	.	.	.	.	.	.	.
8E\L	6	.	(32cc\KLL	.	.	.	.	.	.	.	.	.	.	8E\L	.
.	.	.	16.b\JJ)	.	.	.	.	.	.	.	.	.	.	.	.
16F#\L	.	.	(32a/KLL	.	[8ee\	.	.	.	.	.	.	.	.	16F#\L	.
.	.	.	16.g/JJ)	.	.	.	.	.	.	.	.	.	.	.	.
16G\JJ	.	.	.	.	.	.	.	.	.	.	.	.	.	16G\JJ	.
!LO:LB:g=original	!	!	!	!	!	!	!	!	!	!	!	!	!	!LO:LB:g=original	!
=9	=9	=9	=9	=9	=9	=9	=9	=9	=9	=9	=9	=9	=9	=9	=9
!	!	!	!	!	!LO:TX:t=P:problem=mixed beam	!	!	!	!	!	!	!	!	!	!
4A\	6 5	.	8f#/	.	8ee\L]	.	2.ryy	2.ryy	2.ryy	0.r	.	2.ryy	2.ryy	4A\	.
.	.	.	4f#/	.	8f#X/|	.	.	.	.	.	.	.	.	.	.
4F#\	.	.	.	.	8a/|	.	.	.	.	.	.	.	.	4F#\	.
.	.	.	4f#/	.	8cc/J|	.	.	.	.	.	.	.	.	.	.
4A\	.	.	.	.	(32ff#\KLL	.	.	.	.	.	.	.	.	4A\	.
.	.	.	.	.	16.ee\JJ)	.	.	.	.	.	.	.	.	.	.
.	.	.	[8f#/	.	(32dd\KLL	.	.	.	.	.	.	.	.	.	.
.	.	.	.	.	16.cc\JJ)	.	.	.	.	.	.	.	.	.	.
!	!	!	!LO:LB:g=original	!	!	!	!	!	!	!	!	!	!	!	!
=10	=10	=10	=10	=10	=10	=10	=10	=10	=10	=10	=10	=10	=10	=10	=10
4B\	.	.	8f#/L]	.	8dd\	.	2.ryy	2.ryy	2.ryy	.	.	2.ryy	2.ryy	4B\	.
!	!	!	!LO:SIC:s=8B|	!	!	!	!	!	!	!	!	!	!	!	!
.	.	.	8B/	.	4dd\	.	.	.	.	.	.	.	.	.	.
!	!	!	!LO:SIC:s=8d|	!	!	!	!	!	!	!	!	!	!	!	!
4BB/	.	.	8d/	.	.	.	.	.	.	.	.	.	.	4BB/	.
!	!	!	!LO:SIC:s=8f#J|	!	!	!	!	!	!	!	!	!	!	!	!
.	.	.	8f#/J	.	4dd\	.	.	.	.	.	.	.	.	.	.
8D\L	6	.	(32b/KLL	.	.	.	.	.	.	.	.	.	.	8D\L	.
.	.	.	16.a/JJ)	.	.	.	.	.	.	.	.	.	.	.	.
16E\L	.	.	(32g/KLL	.	[8dd\	.	.	.	.	.	.	.	.	16E\L	.
.	.	.	16.f#/JJ)	.	.	.	.	.	.	.	.	.	.	.	.
16F#\JJ	.	.	.	.	.	.	.	.	.	.	.	.	.	16F#\JJ	.
=11	=11	=11	=11	=11	=11	=11	=11	=11	=11	=11	=11	=11	=11	=11	=11
!	!	!	!	!	!LO:TX:t=P:problem=mixed beam	!	!	!	!	!	!	!	!	!	!
4G\	6 5	.	8e/	.	8dd\L]	.	2.ryy	2.ryy	2.ryy	.	.	2.ryy	2.ryy	4G\	.
.	.	.	4e/	.	8e/|	.	.	.	.	.	.	.	.	.	.
4E\	.	.	.	.	8g/|	.	.	.	.	.	.	.	.	4E\	.
.	.	.	4e/	.	8b/J|	.	.	.	.	.	.	.	.	.	.
4G\	.	.	.	.	(32ee\KLL	.	.	.	.	.	.	.	.	4G\	.
.	.	.	.	.	16.dd\JJ)	.	.	.	.	.	.	.	.	.	.
.	.	.	[8e/	.	(32cc\KLL	.	.	.	.	.	.	.	.	.	.
.	.	.	.	.	16.b\JJ)	.	.	.	.	.	.	.	.	.	.
=12	=12	=12	=12	=12	=12	=12	=12	=12	=12	=12	=12	=12	=12	=12	=12
4A\	.	.	8e/L]	.	8cc\	.	2.ryy	2.ryy	2.ryy	.	.	2.ryy	2.ryy	4A\	.
!	!	!	!LO:SIC:s=8A|	!	!	!	!	!	!	!	!	!	!	!	!
.	.	.	8A/	.	4cc\	.	.	.	.	.	.	.	.	.	.
!	!	!	!LO:SIC:s=8c|	!	!	!	!	!	!	!	!	!	!	!	!
4AA/	.	.	8c/	.	.	.	.	.	.	.	.	.	.	4AA/	.
!	!	!	!LO:SIC:s=8eJ|	!	!	!	!	!	!	!	!	!	!	!	!
.	.	.	8e/J	.	4cc\	.	.	.	.	.	.	.	.	.	.
8C\L	6	.	(32a/KLL	.	.	.	.	.	.	.	.	.	.	8C/L	.
.	.	.	16.g/JJ)	.	.	.	.	.	.	.	.	.	.	.	.
16D\L	.	.	(32f#/KLL	.	[8cc\	.	.	.	.	.	.	.	.	16D/L	.
.	.	.	16.e/JJ)	.	.	.	.	.	.	.	.	.	.	.	.
16E\JJ	.	.	.	.	.	.	.	.	.	.	.	.	.	16E/JJ	.
!	!	!	!	!	!LO:LB:g=original	!	!	!	!	!	!	!	!	!	!
=13	=13	=13	=13	=13	=13	=13	=13	=13	=13	=13	=13	=13	=13	=13	=13
!	!	!	!	!	!LO:TX:t=P:problem=mixed beam	!	!	!	!	!	!	!	!	!	!
4F#\	6 5	.	8d/	.	8cc\L]	.	2.ryy	2.ryy	2.ryy	0.r	.	2.ryy	2.ryy	4F#\	.
.	.	.	4d/	.	8d/|	.	.	.	.	.	.	.	.	.	.
4D\	.	.	.	.	8f#/|	.	.	.	.	.	.	.	.	4D\	.
.	.	.	4d/	.	8a/J|	.	.	.	.	.	.	.	.	.	.
4F#\	.	.	.	.	(32dd\KLL	.	.	.	.	.	.	.	.	4F#\	.
.	.	.	.	.	16.cc\JJ)	.	.	.	.	.	.	.	.	.	.
.	.	.	8d/	.	(32b\KLL	.	.	.	.	.	.	.	.	.	.
.	.	.	.	.	16.a\JJ)	.	.	.	.	.	.	.	.	.	.
=14	=14	=14	=14	=14	=14	=14	=14	=14	=14	=14	=14	=14	=14	=14	=14
4G\	.	.	4d/	.	(32b\LLL	.	2.ryy	2.ryy	2.ryy	.	.	2.ryy	2.ryy	4G\	.
.	.	.	.	.	32cc\JJ	.	.	.	.	.	.	.	.	.	.
.	.	.	.	.	8.dd\J)	.	.	.	.	.	.	.	.	.	.
!	!	!	!	!	!	!LO:DY:t=pia&colon;	!	!	!	!	!	!	!	!	!
8r	.	.	8r	.	2fn/	p	.	.	.	.	.	.	.	8r	.
!	!	!LO:MO:mod=!LO&colon;DY&colon;ed=brack	!	!	!	!	!	!	!	!	!	!	!	!	!LO:MO:mod=!LO&colon;DY&colon;ed=brack
!	!	!null	!	!	!	!	!	!	!	!	!	!	!	!	!null
!	!	!LO:MO:null:mod=p	!	!LO:MO:null:mod=p	!	!	!	!	!	!	!	!	!	!	!LO:MO:null:mod=p
8GG/L|	n7r	.	8b\L	.	.	.	.	.	.	.	.	.	.	8GG/L|	.
!	!	!	!	!LO:DY:mod= :t=p&colon;	!	!	!	!	!	!	!	!	!	!	!
8AA/|	.	.	8cc\	p	.	.	.	.	.	.	.	.	.	8AA/|	.
8BB/J|	.	.	8dd\J	.	.	.	.	.	.	.	.	.	.	8BB/J|	.
=15	=15	=15	=15	=15	=15	=15	=15	=15	=15	=15	=15	=15	=15	=15	=15
2C/	3	.	8g/|	.	8e/|	.	2.ryy	2.ryy	2.ryy	.	.	2.ryy	2.ryy	2C/	.
.	6	.	(4e/	.	4cc\	.	.	.	.	.	.	.	.	.	.
.	.	.	16d/LL	.	(16b/LL	.	.	.	.	.	.	.	.	.	.
.	.	.	16c/JJ)	.	16a/JJ)	.	.	.	.	.	.	.	.	.	.
4D/	#	.	8B/L	.	8g/L	.	.	.	.	.	.	.	.	4D/	.
.	.	.	8A/J	.	8f#X/J	.	.	.	.	.	.	.	.	.	.
=16	=16	=16	=16	=16	=16	=16	=16	=16	=16	=16	=16	=16	=16	=16	=16
4G\	.	.	4G/	.	(32b\LLL	.	2.ryy	2.ryy	2.ryy	.	.	2.ryy	2.ryy	4G\	.
.	.	.	.	.	32cc\JJ	.	.	.	.	.	.	.	.	.	.
.	.	.	.	.	8.dd\J)	.	.	.	.	.	.	.	.	.	.
8r	.	.	8r	.	2fn/	.	.	.	.	.	.	.	.	8r	.
8GG/L|	n7r	.	8b\L	.	.	.	.	.	.	.	.	.	.	8GG/L|	.
8AA/|	.	.	8cc\	.	.	.	.	.	.	.	.	.	.	8AA/|	.
8BB/J|	.	.	8dd\J	.	.	.	.	.	.	.	.	.	.	8BB/J|	.
!	!	!	!	!	!	!	!	!	!	!	!	!	!	!LO:LB:g=original	!
=17	=17	=17	=17	=17	=17	=17	=17	=17	=17	=17	=17	=17	=17	=17	=17
2C/	3	.	8g/|	.	8e/|	.	2.ryy	2.ryy	2.ryy	0.r	.	2.ryy	2.ryy	2C/	.
.	6	.	(4cc\	.	(4ee\	.	.	.	.	.	.	.	.	.	.
.	.	.	16b/LL	.	16dd\LL	.	.	.	.	.	.	.	.	.	.
.	.	.	16a/JJ)	.	16cc\JJ)	.	.	.	.	.	.	.	.	.	.
4D/	#	.	8g/L	.	8b/L	.	.	.	.	.	.	.	.	4D/	.
.	.	.	8f#/J	.	8a/J	.	.	.	.	.	.	.	.	.	.
!LO:LB:g=original	!	!	!	!	!	!	!	!	!	!	!	!	!	!	!
=18	=18	=18	=18	=18	=18	=18	=18	=18	=18	=18	=18	=18	=18	=18	=18
!	!	!	!	!	!	!LO:MO:null:mod=f	!	!	!	!	!	!	!	!	!
8r	.	.	(32g/LLL	f	(32b\LLL	.	2.ryy	2.ryy	2.ryy	.	.	2.ryy	2.ryy	8r	.
.	.	.	32a/JJ	.	32cc\JJ	.	.	.	.	.	.	.	.	.	.
!	!	!	!	!	!	!LO:MO:mod=.	!	!	!	!	!	!	!	!	!
.	.	.	8.b/J)	.	8.dd\J)	f	.	.	.	.	.	.	.	.	.
!	!	!LO:MO:mod=!LO&colon;DY&colon;ed=brack	!	!	!	!	!	!	!	!	!	!	!	!	!LO:MO:mod=!LO&colon;DY&colon;ed=brack
!	!	!null	!	!	!	!	!	!	!	!	!	!	!	!	!null
!	!	!LO:MO:null:mod=f	!	!	!	!	!	!	!	!	!	!	!	!	!LO:MO:null:mod=f
8G\L|	.	.	.	.	.	.	.	.	.	.	.	.	.	8G\L|	.
8B\|	.	.	4r	.	4r	.	.	.	.	.	.	.	.	8B\|	.
8d\J|	.	.	.	.	.	.	.	.	.	.	.	.	.	8d\J|	.
(16c\LL	.	.	4r	.	4r	.	.	.	.	.	.	.	.	(16c\LL	.
16B\)	.	.	.	.	.	.	.	.	.	.	.	.	.	16B\)	.
(16A\	.	.	.	.	.	.	.	.	.	.	.	.	.	(16A\	.
16G\JJ)	.	.	.	.	.	.	.	.	.	.	.	.	.	16G\JJ)	.
!	!	!	!LO:LB:g=original	!	!	!	!	!	!	!	!	!	!	!	!
=19	=19	=19	=19	=19	=19	=19	=19	=19	=19	=19	=19	=19	=19	=19	=19
8r	6 5	.	(32f#/LLL	.	(32a\LLL	.	2.ryy	2.ryy	2.ryy	.	.	2.ryy	2.ryy	8r	.
.	.	.	32g/JJ	.	32b\JJ	.	.	.	.	.	.	.	.	.	.
.	.	.	8.a/J)	.	8.cc\J)	.	.	.	.	.	.	.	.	.	.
8F#\L|	.	.	.	.	.	.	.	.	.	.	.	.	.	8F#\L|	.
8A\|	.	.	4r	.	4r	.	.	.	.	.	.	.	.	8A\|	.
8c\J|	.	.	.	.	.	.	.	.	.	.	.	.	.	8c\J|	.
(16B\LL	.	.	4r	.	4r	.	.	.	.	.	.	.	.	(16B\LL	.
16A\)	.	.	.	.	.	.	.	.	.	.	.	.	.	16A\)	.
(16G\	.	.	.	.	.	.	.	.	.	.	.	.	.	(16G\	.
16F#\JJ)	.	.	.	.	.	.	.	.	.	.	.	.	.	16F#\JJ)	.
=20	=20	=20	=20	=20	=20	=20	=20	=20	=20	=20	=20	=20	=20	=20	=20
!LO:TX:t=P:problem=mixed beam	!	!	!LO:TUP:b:problem:łuczek zamiast numeru	!	!LO:TUP:b:problem:klamra łukowa	!	!	!	!	!	!	!	!	!LO:TX:t=P:problem=mixed beam	!
8G\L	.	.	24g/LL	.	24b/LL	.	2.ryy	2.ryy	2.ryy	.	.	2.ryy	2.ryy	8G\L	.
.	.	.	24f#/	.	24a/	.	.	.	.	.	.	.	.	.	.
.	.	.	24g/JJ	.	24b/JJ	.	.	.	.	.	.	.	.	.	.
8C/J	6	.	16a/LL	.	16.cc\LL	.	.	.	.	.	.	.	.	8C/J	.
.	.	.	16e/JJ	.	.	.	.	.	.	.	.	.	.	.	.
.	.	.	.	.	32a\JJk	.	.	.	.	.	.	.	.	.	.
.	.	.	8qqg/	.	.	.	.	.	.	.	.	.	.	.	.
4D/	.	.	2f#t/	.	4d/	.	.	.	.	.	.	.	.	4D/	.
4DD/	.	.	.	.	4aT/	.	.	.	.	.	.	.	.	4DD/	.
!	!	!	!	!	!LO:LB:g=original	!	!	!	!	!	!	!	!	!	!
=21	=21	=21	=21	=21	=21	=21	=21	=21	=21	=21	=21	=21	=21	=21	=21
4GG/	.	.	4g/	.	4g/	.	2.ryy	2.ryy	2.ryy	2.r	.	2.ryy	2.ryy	4GG/	.
8r	.	.	4G/	.	4G/	.	.	.	.	.	.	.	.	8r	.
8GG/L|	.	.	.	.	.	.	.	.	.	.	.	.	.	8GG/L|	.
8BB/|	.	.	4r	.	4r	.	.	.	.	.	.	.	.	8BB/|	.
8D/J|	.	.	.	.	.	.	.	.	.	.	.	.	.	8D/J|	.
=22	=22	=22	=22	=22	=22	=22	=22	=22	=22	=22	=22	=22	=22	=22	=22
!	!	!LO:DY:t=p&colon;	!	!	!LO:TX:a:t=1.:mod=	!	!	!	!	!	!	!	!	!	!
2G\	.	p	8r	.	2.r	.	2.ryy	2.ryy	2.ryy	8r	.	2.ryy	2.ryy	2G\	p
!	!	!	!	!LO:DY:t=pia&colon;	!	!	!	!	!	!	!	!	!	!	!
.	.	.	8g/L|	p	.	.	.	.	.	8g/	Qui-	.	.	.	.
.	.	.	8b/|	.	.	.	.	.	.	8b\	-a	.	.	.	.
.	.	.	8dd/J|	.	.	.	.	.	.	8dd\	res-	.	.	.	.
!	!	!	!	!	!	!	!	!	!	!	!LO:MO:mod=-pe-	!	!	!	!
4GG/	.	.	(32cc\KLL	.	.	.	.	.	.	(32cc\KLL	-pex-	.	.	4GG/	.
.	.	.	16.b\JJ)	.	.	.	.	.	.	16.b\JJ)	.	.	.	.	.
!	!	!	!	!	!	!	!	!	!	!	!LO:MO:mod=-xit	!	!	!	!
.	.	.	(32a/KLL	.	.	.	.	.	.	(32a\KLL	-it	.	.	.	.
.	.	.	16.g/JJ)	.	.	.	.	.	.	16.g\JJ)	.	.	.	.	.
=23	=23	=23	=23	=23	=23	=23	=23	=23	=23	=23	=23	=23	=23	=23	=23
4D\	.	.	(4f#/	.	8r	.	2.ryy	2.ryy	2.ryy	(8f#/	hu-	2.ryy	2.ryy	4D\	.
!	!	!	!	!	!	!LO:DY:t=p&colon;	!	!	!	!	!	!	!	!	!
.	.	.	.	.	8a/L|	p	.	.	.	8a\)	.	.	.	.	.
4E\	6	.	4g/)	.	8cc/|	.	.	.	.	8cc\	-mi-	.	.	4E\	.
.	.	.	.	.	8ee/J|	.	.	.	.	8ee\	-li-	.	.	.	.
!	!	!	!	!	!	!	!	!	!	!LO:LB:g=original	!	!	!	!	!
4F#\	6 5	.	4a/|	.	(32dd\KLL	.	.	.	.	(32dd\KLL	-ta-	.	.	4F#\	.
.	.	.	.	.	16.cc\JJ)	.	.	.	.	16.cc\JJ)	.	.	.	.	.
.	.	.	.	.	(32b/KLL	.	.	.	.	(32b\KLL	.	.	.	.	.
.	.	.	.	.	16.a/JJ)	.	.	.	.	16.a\JJ)	.	.	.	.	.
!	!	!	!	!	!	!	!	!	!	!	!	!	!	!LO:LB:g=original	!
=24	=24	=24	=24	=24	=24	=24	=24	=24	=24	=24	=24	=24	=24	=24	=24
!	!	!	!LO:TX:t=P:problem=mixed beam	!	!	!	!	!	!	!	!	!	!	!	!
4G\	.	.	8.d/L	.	8.b\L	.	2.ryy	2.ryy	2.ryy	4b\	-tem	2.ryy	2.ryy	4G\	.
.	.	.	16bb\Jk	.	16ddd\Jk	.	.	.	.	.	.	.	.	.	.
*	*	*	*	*	*	*	*	*	*	*2\right	*	*	*	*	*
4r	.	.	(4bb\	.	(4ddd\	.	.	.	.	2dd\	an-	.	.	4r	.
4G\	.	.	8aa\L)	.	8ccc\L)	.	.	.	.	.	.	.	.	4G\	.
.	.	.	8gg\J|	.	8bb\J|	.	.	.	.	.	.	.	.	.	.
!LO:LB:g=original	!	!	!	!	!	!	!	!	!	!	!	!	!	!	!
=25	=25	=25	=25	=25	=25	=25	=25	=25	=25	=25	=25	=25	=25	=25	=25
4d\	.	.	8.ff#\L	.	8.aa\L	.	2.ryy	2.ryy	2.ryy	2dd\	-cil-	2.ryy	2.ryy	4d\	.
.	.	.	16a\Jk	.	16cc\Jk	.	.	.	.	.	.	.	.	.	.
!	!	!	!	!	!LO:SIC:s=(4.ccT	!	!	!	!	!	!	!	!	!	!
4r	.	.	(4.aT/	.	4.ccT\	.	.	.	.	.	.	.	.	4r	.
4D/	7	.	.	.	.	.	.	.	.	4cc\	-lae	.	.	4D/	.
!	!	!	!	!	!LO:SIC:s=16bLL	!	!	!	!	!	!	!	!	!	!
.	.	.	16g/LL	.	(16b/LL	.	.	.	.	.	.	.	.	.	.
.	.	.	16f#/JJ)	.	16a/JJ)	.	.	.	.	.	.	.	.	.	.
=26	=26	=26	=26	=26	=26	=26	=26	=26	=26	=26	=26	=26	=26	=26	=26
!	!	!	!	!	!	!	!	!	!	!LO:TUP:a:problem:klamra łukowa	!	!	!	!	!
2G\	.	.	8.g/L	.	8.b\L	.	2.ryy	2.ryy	2.ryy	12b\L	an-	2.ryy	2.ryy	2G\	.
.	.	.	.	.	.	.	.	.	.	12cc\	.	.	.	.	.
.	.	.	.	.	.	.	.	.	.	12dd\J	.	.	.	.	.
.	.	.	16b/Jk	.	16dd\Jk	.	.	.	.	.	.	.	.	.	.
!	!	!	!LO:MO:null:mod=8qqcc@	!	!	!	!	!	!	!	!	!	!	!	!
.	.	.	.	.	8qqee/	.	.	.	.	.	.	.	.	.	.
.	.	.	(4b/	.	(4dd\	.	.	.	.	(4dd\	-cil-	.	.	.	.
4GG/	.	.	8a/L)	.	8cc\L)	.	.	.	.	8cc\)	.	.	.	4GG/	.
.	.	.	8g/J|	.	8b\J|	.	.	.	.	8b\	-lae	.	.	.	.
=27	=27	=27	=27	=27	=27	=27	=27	=27	=27	=27	=27	=27	=27	=27	=27
!	!	!	!LO:MO:null:mod=8qqa@	!	!	!	!	!	!	!	!	!	!	!	!
.	.	.	.	.	8qqcc/	.	.	.	.	8qqcc/	.	.	.	.	.
*	*	*	*	*	*Xtuplet	*	*	*	*	*	*	*	*	*	*
!	!	!	!LO:TUP:b:problem:łuczek zamiast numeru	!	!LO:TUP:b:problem:klamra łukowa	!	!	!	!	!	!	!	!	!	!
4r	6 4	.	12g/L	.	12b/L	.	2.ryy	2.ryy	2.ryy	4b\	su-	2.ryy	2.ryy	4r	.
.	.	.	12f#/	.	12a/	.	.	.	.	.	.	.	.	.	.
.	.	.	12g/J	.	12b/J	.	.	.	.	.	.	.	.	.	.
4D\	5 3	.	4f#/	.	4a/	.	.	.	.	4a\	-ae	.	.	4D\	.
4E\	6/	.	4r	.	4r	.	.	.	.	4r	.	.	.	4E\	.
!	!	!	!	!	!	!	!	!	!	!LO:LB:g=original	!	!	!	!	!
=28	=28	=28	=28	=28	=28	=28	=28	=28	=28	=28	=28	=28	=28	=28	=28
!	!	!	!LO:TX:a:t=1.:mod=	!	!LO:TX:a:t=1.:mod=	!	!	!	!	!	!	!	!	!	!
4F#\	6	.	2.r	.	2.r	.	2.ryy	2.ryy	2.ryy	4r	.	2.ryy	2.ryy	4F#\	.
4r	.	.	.	.	.	.	.	.	.	4dd\	ec-	.	.	4r	.
4r	.	.	.	.	.	.	.	.	.	4dd\	-ce	.	.	4r	.
!	!	!	!LO:LB:g=original	!	!	!	!	!	!	!	!	!	!	!	!
=29	=29	=29	=29	=29	=29	=29	=29	=29	=29	=29	=29	=29	=29	=29	=29
4r	.	.	4r	.	4r	.	2.ryy	2.ryy	2.ryy	(8ee\L	e-	2.ryy	2.ryy	4r	.
.	.	.	.	.	.	.	.	.	.	8cc#X\J)	.	.	.	.	.
.	.	.	.	.	.	.	.	.	.	8qqcc#/	.	.	.	.	.
4F#\	6	.	4a/	.	4dd\	.	.	.	.	4dd\	-nim	.	.	4F#\	.
4F#\	6	.	4a/	.	4dd\	.	.	.	.	4r	.	.	.	4F#\	.
=30	=30	=30	=30	=30	=30	=30	=30	=30	=30	=30	=30	=30	=30	=30	=30
4G\	6	.	4b/	.	(8ee\L	.	2.ryy	2.ryy	2.ryy	4r	.	2.ryy	2.ryy	4G\	.
.	.	.	.	.	8cc#X\J)	.	.	.	.	.	.	.	.	.	.
4F#\	6	.	4a/	.	4dd\|	.	.	.	.	4dd\	ex	.	.	4F#\	.
4r	.	.	4r	.	4r	.	.	.	.	8dd\	hoc	.	.	4r	.
.	.	.	.	.	.	.	.	.	.	8dd\	be-	.	.	.	.
=31	=31	=31	=31	=31	=31	=31	=31	=31	=31	=31	=31	=31	=31	=31	=31
4r	.	.	4r	.	4r	.	2.ryy	2.ryy	2.ryy	(8ee\L	-a-	2.ryy	2.ryy	4r	.
.	.	.	.	.	.	.	.	.	.	8cc#X\J)	.	.	.	.	.
.	.	.	.	.	.	.	.	.	.	8qqcc#/	.	.	.	.	.
4F#\	6	.	4a/	.	4dd\	.	.	.	.	4dd\	-tam	.	.	4F#\	.
4F#\	.	.	4a/	.	4dd\	.	.	.	.	4r	.	.	.	4F#\	.
!	!	!	!	!	!LO:LB:g=original	!	!	!	!	!LO:LB:g=original	!	!	!	!	!
=32	=32	=32	=32	=32	=32	=32	=32	=32	=32	=32	=32	=32	=32	=32	=32
4G\	6	.	4b/	.	(8ee\L	.	2.ryy	2.ryy	2.ryy	4r	.	2.ryy	2.ryy	4G\	.
.	.	.	.	.	8cc#X\J)	.	.	.	.	.	.	.	.	.	.
!	!	!	!	!	!LO:SIC:s=4dd|	!	!	!	!	!	!	!	!	!	!
4F#\	6	.	4a/	.	4dd\	.	.	.	.	4r	.	.	.	4F#\	.
4r	.	.	4r	.	4r	.	.	.	.	4a\	me-	.	.	4r	.
=33	=33	=33	=33	=33	=33	=33	=33	=33	=33	=33	=33	=33	=33	=33	=33
4r	.	.	4r	.	4r	.	2.ryy	2.ryy	2.ryy	(4.a\	-di-	2.ryy	2.ryy	4r	.
4F#\	6	.	4r	.	4r	.	.	.	.	.	.	.	.	4F#\	.
.	.	.	.	.	.	.	.	.	.	16b\LL	.	.	.	.	.
.	.	.	.	.	.	.	.	.	.	16cc#X\JJ)	.	.	.	.	.
4D/	.	.	4f#/|	.	4dd\|	.	.	.	.	4dd\	-cent	.	.	4D\	.
!LO:LB:g=original	!	!	!	!	!	!	!	!	!	!	!	!	!	!LO:LB:g=original	!
=34	=34	=34	=34	=34	=34	=34	=34	=34	=34	=34	=34	=34	=34	=34	=34
2.AA/	6 4	.	(4f#/	.	(4dd\	.	2.ryy	2.ryy	2.ryy	(4dd\	o-	2.ryy	2.ryy	2.AA/	.
.	5 #	.	4e/)	.	4cc#X\)	.	.	.	.	4cc#X\)	.	.	.	.	.
.	6 4	.	4dd\|	.	4ff#\|	.	.	.	.	[4ff#\	.	.	.	.	.
=35	=35	=35	=35	=35	=35	=35	=35	=35	=35	=35	=35	=35	=35	=35	=35
2AA/	6 4	.	(4dd\	.	(4ff#\	.	2.ryy	2.ryy	2.ryy	4ff#\]	.	2.ryy	2.ryy	2AA/	.
.	5 #	.	4cc#X\)	.	4ee\)	.	.	.	.	4ee\	.	.	.	.	.
4F#\	6	.	4r	.	[4aa\	.	.	.	.	[4aa\	.	.	.	4F#\	.
=36	=36	=36	=36	=36	=36	=36	=36	=36	=36	=36	=36	=36	=36	=36	=36
*	*	*	*2\right	*	*	*	*	*	*	*	*	*	*	*	*
2G\	9	.	[2.bb\	.	4aa\]	.	2.ryy	2.ryy	2.ryy	4aa\]	.	2.ryy	2.ryy	2G\	.
.	8	.	.	.	(16gg\KL	.	.	.	.	(16gg\KL	.	.	.	.	.
.	.	.	.	.	8.ff#\J)	.	.	.	.	8.ff#\J)	.	.	.	.	.
4GG/	6	.	.	.	(16ee\KL	.	.	.	.	(16ee\KL	.	.	.	4GG/	.
.	5	.	.	.	8.dd\J)	.	.	.	.	8.dd\J)	.	.	.	.	.
!	!	!	!	!	!	!	!	!	!	!LO:LB:g=original	!	!	!	!	!
=37	=37	=37	=37	=37	=37	=37	=37	=37	=37	=37	=37	=37	=37	=37	=37
.	.	.	.	.	8qqdd/	.	.	.	.	8qqdd/	.	.	.	.	.
*	*	*	*	*	*2\right	*	*	*	*	*	*	*	*	*	*
2AA/	9 #	.	4bb\]	.	2.cc#X\	.	2.ryy	2.ryy	2.ryy	2.cc#X\	-mnes	2.ryy	2.ryy	2AA/	.
.	8	.	(16aa\KL	.	.	.	.	.	.	.	.	.	.	.	.
.	.	.	8.gg\J)	.	.	.	.	.	.	.	.	.	.	.	.
4AA/	.	.	(16ff#\KL	.	.	.	.	.	.	.	.	.	.	4AA/	.
.	.	.	8.ee\J)	.	.	.	.	.	.	.	.	.	.	.	.
=38	=38	=38	=38	=38	=38	=38	=38	=38	=38	=38	=38	=38	=38	=38	=38
8r	.	.	(32dd\LLL	.	(32ff#\LLL	.	2.ryy	2.ryy	2.ryy	4r	.	2.ryy	2.ryy	8r	.
.	.	.	32ee\JJ	.	32gg\JJ	.	.	.	.	.	.	.	.	.	.
.	.	.	8.ff#\J)	.	8.aa\J)	.	.	.	.	.	.	.	.	.	.
8D\L|	.	.	.	.	.	.	.	.	.	.	.	.	.	8D\L|	.
8F#\|	.	.	4r	.	4r	.	.	.	.	4a\	ge-	.	.	8F#\|	.
8A\J|	.	.	.	.	.	.	.	.	.	.	.	.	.	8A\J|	.
(16G\LL	.	.	4r	.	4r	.	.	.	.	4a\	-ne-	.	.	(16G\LL	.
16F#\)	.	.	.	.	.	.	.	.	.	.	.	.	.	16F#\)	.
(16E\	.	.	.	.	.	.	.	.	.	.	.	.	.	(16E\	.
16D\JJ)	.	.	.	.	.	.	.	.	.	.	.	.	.	16D\JJ)	.
=39	=39	=39	=39	=39	=39	=39	=39	=39	=39	=39	=39	=39	=39	=39	=39
8r	.	.	(32cc#X\LLL	.	(32ee\LLL	.	2.ryy	2.ryy	2.ryy	2a\	-ra-	2.ryy	2.ryy	8r	.
.	.	.	32dd\JJ	.	32ff#\JJ	.	.	.	.	.	.	.	.	.	.
.	.	.	8.ee\J)	.	8.gg\J)	.	.	.	.	.	.	.	.	.	.
8C#X\L|	6 5	.	.	.	.	.	.	.	.	.	.	.	.	8C#X\L|	.
8E\|	.	.	4r	.	4r	.	.	.	.	.	.	.	.	8E\|	.
8G\J|	.	.	.	.	.	.	.	.	.	.	.	.	.	8G\J|	.
(16F#\LL	.	.	4r	.	4r	.	.	.	.	4gg\	-ti-	.	.	(16F#\LL	.
16E\)	.	.	.	.	.	.	.	.	.	.	.	.	.	16E\)	.
(16D\	.	.	.	.	.	.	.	.	.	.	.	.	.	(16D\	.
16C#X\JJ)	.	.	.	.	.	.	.	.	.	.	.	.	.	16C#X\JJ)	.
=40	=40	=40	=40	=40	=40	=40	=40	=40	=40	=40	=40	=40	=40	=40	=40
!LO:TX:t=P:problem=mixed beam	!	!	!LO:TX:a:t=2.:mod=	!	!LO:TX:a:t=1.:mod=	!	!	!	!	!	!	!	!	!LO:TX:t=P:problem=mixed beam	!
8D\L	.	.	1.r	.	2.r	.	2.ryy	2.ryy	2.ryy	(32ff#\LLL	-o-	2.ryy	2.ryy	8D\L	.
.	.	.	.	.	.	.	.	.	.	32ee\JJ	.	.	.	.	.
.	.	.	.	.	.	.	.	.	.	8.dd\J)	.	.	.	.	.
8B\	.	.	.	.	.	.	.	.	.	.	.	.	.	8B\	.
8G\	6 5	.	.	.	.	.	.	.	.	2eeT\	.	.	.	8G\	.
8E\	.	.	.	.	.	.	.	.	.	.	.	.	.	8E\	.
8A\	#	.	.	.	.	.	.	.	.	.	.	.	.	8A\	.
8AA/J	.	.	.	.	.	.	.	.	.	.	.	.	.	8AA/J	.
!LO:LB:g=original	!	!	!	!	!	!	!	!	!	!	!	!	!	!LO:LB:g=original	!
=41	=41	=41	=41	=41	=41	=41	=41	=41	=41	=41	=41	=41	=41	=41	=41
!	!	!	!	!	!	!	!	!	!	!	!	!	!	!	!LO:MO:mod=!LO&colon;DY&colon;ed=brack
!	!	!	!	!	!	!	!	!	!	!	!	!	!	!	!null
!	!	!	!	!	!	!	!	!	!	!	!	!	!	!LO:TX:a:i:t=Solo.:mod=	!LO:MO:null:mod=f
2D/	.	f	.	.	8r	.	2.ryy	2.ryy	2.ryy	2dd\	-nes	2.ryy	2.ryy	2D/	.
!	!	!	!	!	!	!LO:MO:null:mod=f	!	!	!	!	!	!	!	!	!
.	.	.	.	.	8dd\L|	.	.	.	.	.	.	.	.	.	.
!	!	!	!	!	!	!LO:MO:mod=.	!	!	!	!	!	!	!	!	!
.	.	.	.	.	8ff#\|	f	.	.	.	.	.	.	.	.	.
.	.	.	.	.	8aa\J|	.	.	.	.	.	.	.	.	.	.
4D/	.	.	.	.	(32ddd\KLL	.	.	.	.	4r	.	.	.	4D/	.
.	.	.	.	.	16.ccc\JJ)	.	.	.	.	.	.	.	.	.	.
.	.	.	.	.	(32bb\KLL	.	.	.	.	.	.	.	.	.	.
.	.	.	.	.	16.aa\JJ)	.	.	.	.	.	.	.	.	.	.
!	!	!	!LO:LB:g=original	!	!	!	!	!	!	!	!	!	!	!	!
=42	=42	=42	=42	=42	=42	=42	=42	=42	=42	=42	=42	=42	=42	=42	=42
!	!	!	!	!	!	!	!	!	!	!LO:TX:a:t=8.:mod=	!	!	!	!	!
2G\	.	.	8r	.	8bb\	.	2.ryy	2.ryy	2.ryy	0.r	.	2.ryy	2.ryy	2G\	.
.	.	.	8g/L|	f	4bb\	.	.	.	.	.	.	.	.	.	.
.	.	.	8b/|	.	.	.	.	.	.	.	.	.	.	.	.
.	.	.	8dd/J|	.	4bb\	.	.	.	.	.	.	.	.	.	.
4GG/	.	.	(32gg\KLL	.	.	.	.	.	.	.	.	.	.	4GG/	.
.	.	.	16.ff#\JJ)	.	.	.	.	.	.	.	.	.	.	.	.
.	.	.	(32ee\KLL	.	[8bb\	.	.	.	.	.	.	.	.	.	.
.	.	.	16.dd\JJ)	.	.	.	.	.	.	.	.	.	.	.	.
!	!	!	!	!	!LO:LB:g=original	!	!	!	!	!	!	!	!	!	!
=43	=43	=43	=43	=43	=43	=43	=43	=43	=43	=43	=43	=43	=43	=43	=43
2AA/	9 #	.	8cc#X\	.	8bb\L]	.	2.ryy	2.ryy	2.ryy	.	.	2.ryy	2.ryy	2AA/	.
.	8	.	4cc#\	.	8a\|	.	.	.	.	.	.	.	.	.	.
.	.	.	.	.	8cc#X\|	.	.	.	.	.	.	.	.	.	.
.	.	.	4cc#\	.	8ee\J|	.	.	.	.	.	.	.	.	.	.
4AA/	.	.	.	.	(32aa\KLL	.	.	.	.	.	.	.	.	4AA/	.
.	.	.	.	.	16.gg\JJ)	.	.	.	.	.	.	.	.	.	.
.	.	.	8cc#\	.	(32ff#\KLL	.	.	.	.	.	.	.	.	.	.
.	.	.	.	.	16.ee\JJ)	.	.	.	.	.	.	.	.	.	.
=44	=44	=44	=44	=44	=44	=44	=44	=44	=44	=44	=44	=44	=44	=44	=44
4D\	.	.	4a/	.	(32ff#\LLL	.	2.ryy	2.ryy	2.ryy	.	.	2.ryy	2.ryy	4D/	.
.	.	.	.	.	32gg\JJ	.	.	.	.	.	.	.	.	.	.
.	.	.	.	.	8.aa\J)	.	.	.	.	.	.	.	.	.	.
.	.	.	.	.	8qqdd/	.	.	.	.	.	.	.	.	.	.
8r	.	.	8r	.	2ccn\	.	.	.	.	.	.	.	.	8r	.
8D\L	n7r	.	8ff#\L	.	.	.	.	.	.	.	.	.	.	8D\L|	.
8E\|	.	.	8gg\	.	.	.	.	.	.	.	.	.	.	8E\|	.
8F#\J|	.	.	8aa\J	.	.	.	.	.	.	.	.	.	.	8F#\J|	.
=45	=45	=45	=45	=45	=45	=45	=45	=45	=45	=45	=45	=45	=45	=45	=45
2G\	3	.	8dd\|	.	8b\|	.	2.ryy	2.ryy	2.ryy	.	.	2.ryy	2.ryy	2G\	.
.	6	.	(4b/	.	(4gg\	.	.	.	.	.	.	.	.	.	.
.	.	.	16a/LL	.	16ff#\LL	.	.	.	.	.	.	.	.	.	.
.	.	.	16g/JJ)	.	16ee\JJ)	.	.	.	.	.	.	.	.	.	.
4A\	#	.	8f#/L	.	8dd\L	.	.	.	.	.	.	.	.	4A\	.
.	.	.	8e/J	.	8cc#X\J	.	.	.	.	.	.	.	.	.	.
=46	=46	=46	=46	=46	=46	=46	=46	=46	=46	=46	=46	=46	=46	=46	=46
!	!	!LO:DY:t=p&colon;	!	!LO:DY:t=pia&colon;	!	!LO:MO:null:mod=p	!	!	!	!	!	!	!	!	!
4d\	.	p	4d/	p	(32ff#\LLL	.	2.ryy	2.ryy	2.ryy	0.r	.	2.ryy	2.ryy	4d\	p
.	.	.	.	.	32gg\JJ	.	.	.	.	.	.	.	.	.	.
!	!	!	!	!	!	!LO:DY:mod= :t=p&colon;	!	!	!	!	!	!	!	!	!
.	.	.	.	.	8.aa\J)	p	.	.	.	.	.	.	.	.	.
.	.	.	.	.	8qqdd/	.	.	.	.	.	.	.	.	.	.
8r	.	.	8r	.	2ccn\	.	.	.	.	.	.	.	.	8r	.
8D\L	n7r	.	8f#/L	.	.	.	.	.	.	.	.	.	.	8D\L|	.
8E\|	.	.	8g/	.	.	.	.	.	.	.	.	.	.	8E\|	.
8F#\J|	.	.	8a/J	.	.	.	.	.	.	.	.	.	.	8F#\J|	.
=47	=47	=47	=47	=47	=47	=47	=47	=47	=47	=47	=47	=47	=47	=47	=47
!	!	!	!LO:MO:mod=8d|	!	!	!	!	!	!	!	!	!	!	!	!
2G\	3	.	8d/	.	8b\|	.	2.ryy	2.ryy	2.ryy	.	.	2.ryy	2.ryy	2G\	.
.	6	.	(4gg\	.	(4bb\	.	.	.	.	.	.	.	.	.	.
.	.	.	16ff#\LL	.	16aa\LL	.	.	.	.	.	.	.	.	.	.
.	.	.	16ee\JJ)	.	16gg\JJ)	.	.	.	.	.	.	.	.	.	.
4A\	#	.	8dd\L	.	8ff#\L	.	.	.	.	.	.	.	.	4A\	.
.	.	.	8cc#X\J	.	8ee\J	.	.	.	.	.	.	.	.	.	.
=48	=48	=48	=48	=48	=48	=48	=48	=48	=48	=48	=48	=48	=48	=48	=48
.	.	.	.	.	8qqgg/	.	.	.	.	.	.	.	.	.	.
*	*	*	*	*	*tuplet	*	*	*	*	*	*	*	*	*	*
!	!	!	!	!	!LO:TUP:a:problem:klamra łukowa, łuczek zamiast numeru	!LO:MO:null:mod=f	!	!	!	!	!	!	!	!	!
8d\L	.	f	(8dd\L	f	24ff#\LL	.	2.ryy	2.ryy	2.ryy	.	.	2.ryy	2.ryy	8d\L	f
!	!	!	!	!	!	!LO:MO:mod=.	!	!	!	!	!	!	!	!	!
.	.	.	.	.	24ee\	f	.	.	.	.	.	.	.	.	.
.	.	.	.	.	24ff#\JJ	.	.	.	.	.	.	.	.	.	.
8G\J	6	.	16ee\L)	.	16.gg\LL	.	.	.	.	.	.	.	.	8G\J	.
.	.	.	16b\JJ|	.	.	.	.	.	.	.	.	.	.	.	.
.	.	.	.	.	32ee\JJk	.	.	.	.	.	.	.	.	.	.
4A\	#	.	2cc#Xt\	.	4a/	.	.	.	.	.	.	.	.	4A\	.
4AA/	7	.	.	.	4eeT\	.	.	.	.	.	.	.	.	4AA/	.
=49	=49	=49	=49	=49	=49	=49	=49	=49	=49	=49	=49	=49	=49	=49	=49
8r	.	.	4dd\	.	4dd\	.	2.ryy	2.ryy	2.ryy	.	.	2.ryy	2.ryy	8r	.
8D\L|	.	.	.	.	.	.	.	.	.	.	.	.	.	8D\L|	.
8F#\|	.	.	4d/	.	4d/	.	.	.	.	.	.	.	.	8F#\|	.
8A\J|	.	.	.	.	.	.	.	.	.	.	.	.	.	8A\J|	.
!LO:LB:g=original	!	!	!	!	!	!	!	!	!	!	!	!	!	!LO:LB:g=original	!
(16G\LL	.	.	4r	.	4r	.	.	.	.	.	.	.	.	(16G\LL	.
16F#\)	.	.	.	.	.	.	.	.	.	.	.	.	.	16F#\)	.
(16E\	.	.	.	.	.	.	.	.	.	.	.	.	.	(16E\	.
16D\JJ)	.	.	.	.	.	.	.	.	.	.	.	.	.	16D\JJ)	.
=50	=50	=50	=50	=50	=50	=50	=50	=50	=50	=50	=50	=50	=50	=50	=50
!	!	!LO:DY:t=pia&colon;	!	!LO:DY:mod= :t=pi&colon;	!LO:TX:a:t=1.:mod=	!	!	!	!	!	!	!	!	!	!
4Cn/	4 2	p	8r	p	2.r	.	2.ryy	2.ryy	2.ryy	2f#/	qui-	2.ryy	2.ryy	4Cn/	p
!	!	!	!	!LO:MO:null:mod=p	!	!	!	!	!	!	!	!	!	!	!
.	.	.	8d/L|	.	.	.	.	.	.	.	.	.	.	.	.
4C/	.	.	8f#/|	.	.	.	.	.	.	.	.	.	.	4C/	.
.	.	.	8a/J|	.	.	.	.	.	.	.	.	.	.	.	.
4C/	.	.	(32g/KLL	.	.	.	.	.	.	4f#/	-a	.	.	4C/	.
.	.	.	16.f#/)	.	.	.	.	.	.	.	.	.	.	.	.
.	.	.	(32e/K	.	.	.	.	.	.	.	.	.	.	.	.
.	.	.	16.d/JJ)	.	.	.	.	.	.	.	.	.	.	.	.
!	!	!	!LO:LB:g=original	!	!	!	!	!	!	!LO:LB:g=original	!	!	!	!	!
=51	=51	=51	=51	=51	=51	=51	=51	=51	=51	=51	=51	=51	=51	=51	=51
!	!	!	!	!	!	!LO:DY:mod= :t=p&colon;	!	!	!	!	!	!	!	!	!
4BB/	6	.	4g/	.	8r	p	2.ryy	2.ryy	2.ryy	2g/	fe-	2.ryy	2.ryy	4BB/	.
!	!	!	!	!	!	!LO:MO:null:mod=p	!	!	!	!	!	!	!	!	!
.	.	.	.	.	8g/L|	.	.	.	.	.	.	.	.	.	.
4BB/	.	.	4r	.	8b/|	.	.	.	.	.	.	.	.	4BB/	.
.	.	.	.	.	8dd/J|	.	.	.	.	.	.	.	.	.	.
4BB/	.	.	4r	.	(32ccn/KLL	.	.	.	.	4g/	-cit	.	.	4BB/	.
.	.	.	.	.	16.b/JJ)	.	.	.	.	.	.	.	.	.	.
.	.	.	.	.	(32a/KLL	.	.	.	.	.	.	.	.	.	.
.	.	.	.	.	16.g/JJ)	.	.	.	.	.	.	.	.	.	.
!	!	!	!	!	!LO:LB:g=original	!	!	!	!	!	!	!	!	!	!
=52	=52	=52	=52	=52	=52	=52	=52	=52	=52	=52	=52	=52	=52	=52	=52
.	.	.	.	.	.	.	.	.	.	8qqd/	.	.	.	.	.
4F#\	6 5	.	8r	.	4a/	.	2.ryy	2.ryy	2.ryy	2ccn\	mi-	2.ryy	2.ryy	4F#\	.
.	.	.	8a\L|	.	.	.	.	.	.	.	.	.	.	.	.
4F#\	.	.	8cc\|	.	4r	.	.	.	.	.	.	.	.	4F#\	.
.	.	.	8ee\J|	.	.	.	.	.	.	.	.	.	.	.	.
4F#\	.	.	(32dd\KLL	.	4r	.	.	.	.	4cc\	-hi	.	.	4F#\	.
.	.	.	16.cc\JJ)	.	.	.	.	.	.	.	.	.	.	.	.
.	.	.	(32b/KLL	.	.	.	.	.	.	.	.	.	.	.	.
.	.	.	16.a/JJ)	.	.	.	.	.	.	.	.	.	.	.	.
=53	=53	=53	=53	=53	=53	=53	=53	=53	=53	=53	=53	=53	=53	=53	=53
!LO:TX:t=P:problem=mixed beam	!	!	!LO:TUP:b:problem:łuczek zamiast numeru	!	!LO:TUP:b:problem:łuczek zamiast numeru	!	!	!	!	!LO:TUP:a:problem:klamra łukowa	!	!	!	!LO:TX:t=P:problem=mixed beam	!
8G\L	.	.	12g/L	.	12b/L	.	2.ryy	2.ryy	2.ryy	12b\L	ma-	2.ryy	2.ryy	8G\L	.
.	.	.	12a/	.	12a/	.	.	.	.	12a\	.	.	.	.	.
8GG/|	.	.	.	.	.	.	.	.	.	.	.	.	.	8GG/|	.
.	.	.	12b/J	.	12g/J	.	.	.	.	12g\J	.	.	.	.	.
8BB/|	.	.	4b/	.	4g/	.	.	.	.	4g/	-gna	.	.	8BB/|	.
8D/J|	.	.	.	.	.	.	.	.	.	.	.	.	.	8D/J|	.
(16C/LL	.	.	4r	.	4r	.	.	.	.	4r	.	.	.	(16C/LL	.
16BB/)	.	.	.	.	.	.	.	.	.	.	.	.	.	16BB/)	.
(16AA/	.	.	.	.	.	.	.	.	.	.	.	.	.	(16AA/	.
16GG/JJ)	.	.	.	.	.	.	.	.	.	.	.	.	.	16GG/JJ)	.
=54	=54	=54	=54	=54	=54	=54	=54	=54	=54	=54	=54	=54	=54	=54	=54
!	!	!	!	!	!LO:TX:a:t=1.:mod=	!	!	!	!	!	!	!	!	!	!
4Fn\	4 2	.	8r	.	2.r	.	2.ryy	2.ryy	2.ryy	2.b\	qui	2.ryy	2.ryy	4Fn\	.
.	.	.	8g/L|	.	.	.	.	.	.	.	.	.	.	.	.
4F\	.	.	8b/|	.	.	.	.	.	.	.	.	.	.	4F\	.
.	.	.	8dd/J|	.	.	.	.	.	.	.	.	.	.	.	.
4F\	.	.	(32cc\KLL	.	.	.	.	.	.	.	.	.	.	4F\	.
.	.	.	16.b\JJ)	.	.	.	.	.	.	.	.	.	.	.	.
.	.	.	(32a/KLL	.	.	.	.	.	.	.	.	.	.	.	.
.	.	.	16.g/JJ)	.	.	.	.	.	.	.	.	.	.	.	.
=55	=55	=55	=55	=55	=55	=55	=55	=55	=55	=55	=55	=55	=55	=55	=55
4E\	6	.	4cc\	.	8r	.	2.ryy	2.ryy	2.ryy	2.cc\	po-	2.ryy	2.ryy	4E\	.
.	.	.	.	.	8cc\L|	.	.	.	.	.	.	.	.	.	.
4E\	.	.	4r	.	8ee\|	.	.	.	.	.	.	.	.	4E\	.
.	.	.	.	.	8gg\J|	.	.	.	.	.	.	.	.	.	.
4E\	.	.	4r	.	(32ffn\KLL	.	.	.	.	.	.	.	.	4E\	.
.	.	.	.	.	16.ee\JJ)	.	.	.	.	.	.	.	.	.	.
.	.	.	.	.	(32dd\KLL	.	.	.	.	.	.	.	.	.	.
.	.	.	.	.	16.cc\JJ)	.	.	.	.	.	.	.	.	.	.
=56	=56	=56	=56	=56	=56	=56	=56	=56	=56	=56	=56	=56	=56	=56	=56
4BB/	6 -5	.	8r	.	4dd\	.	2.ryy	2.ryy	2.ryy	2.ffn\	.	2.ryy	2.ryy	4BB/	.
.	.	.	8dd\L|	.	.	.	.	.	.	.	.	.	.	.	.
4BB/	.	.	8ffn\|	.	4r	.	.	.	.	.	.	.	.	4BB/	.
.	.	.	8aa\J|	.	.	.	.	.	.	.	.	.	.	.	.
4BB/	.	.	(32gg\KLL	.	4r	.	.	.	.	.	.	.	.	4BB/	.
.	.	.	16.ffn\JJ)	.	.	.	.	.	.	.	.	.	.	.	.
.	.	.	(32ee\KLL	.	.	.	.	.	.	.	.	.	.	.	.
.	.	.	16.dd\JJ)	.	.	.	.	.	.	.	.	.	.	.	.
!LO:LB:g=original	!	!	!	!	!	!	!	!	!	!LO:LB:g=original	!	!	!	!LO:LB:g=original	!
=57	=57	=57	=57	=57	=57	=57	=57	=57	=57	=57	=57	=57	=57	=57	=57
!	!	!	!LO:TX:t=P:problem=mixed beam	!	!	!	!	!	!	!LO:TUP:a:problem:klamra łukowa	!	!	!	!	!
4C/	.	.	8ee\L	.	8r	.	2.ryy	2.ryy	2.ryy	12ee\L	-tens	2.ryy	2.ryy	4C/	.
.	.	.	.	.	.	.	.	.	.	12dd\	.	.	.	.	.
.	.	.	8e/|	.	8g/L|	.	.	.	.	.	.	.	.	.	.
.	.	.	.	.	.	.	.	.	.	12cc\J	.	.	.	.	.
4CC/	.	.	8g/|	.	8cc/|	.	.	.	.	4cc\	est	.	.	4CC/	.
.	.	.	8cc/J|	.	8ee/J|	.	.	.	.	.	.	.	.	.	.
4r	.	.	(32ee\KLL	.	(32gg\KLL	.	.	.	.	4r	.	.	.	4r	.
.	.	.	16.dd\)	.	16.ffn\JJ)	.	.	.	.	.	.	.	.	.	.
.	.	.	(32cc\K	.	(32ee\KLL	.	.	.	.	.	.	.	.	.	.
.	.	.	16.b\JJ)	.	16.dd\JJ)	.	.	.	.	.	.	.	.	.	.
!	!	!	!LO:LB:g=original	!	!	!	!	!	!	!	!	!	!	!	!
=58	=58	=58	=58	=58	=58	=58	=58	=58	=58	=58	=58	=58	=58	=58	=58
8r	.	.	4cc\	.	4ee\	.	2.ryy	2.ryy	2.ryy	4ee\	et	2.ryy	2.ryy	8r	.
8C\L|	.	.	.	.	.	.	.	.	.	.	.	.	.	8C\L|	.
8E\|	.	.	4r	.	4r	.	.	.	.	4r	.	.	.	8E\|	.
8G\J|	.	.	.	.	.	.	.	.	.	.	.	.	.	8G\J|	.
(16Fn\LL	.	.	4r	.	4r	.	.	.	.	4r	.	.	.	(16Fn\LL	.
16E\)	.	.	.	.	.	.	.	.	.	.	.	.	.	16E\)	.
(16D\	.	.	.	.	.	.	.	.	.	.	.	.	.	(16D\	.
16C\JJ)	.	.	.	.	.	.	.	.	.	.	.	.	.	16C\JJ)	.
=59	=59	=59	=59	=59	=59	=59	=59	=59	=59	=59	=59	=59	=59	=59	=59
8r	.	.	4b\	.	4dd\	.	2.ryy	2.ryy	2.ryy	2dd\	San-	2.ryy	2.ryy	8r	.
8G\L|	.	.	.	.	.	.	.	.	.	.	.	.	.	8G\L|	.
8B\|	.	.	4r	.	4r	.	.	.	.	.	.	.	.	8B\|	.
8d\J|	.	.	.	.	.	.	.	.	.	.	.	.	.	8d\J|	.
(16c\LL	.	.	4dd\	.	4bb\	.	.	.	.	4dd\	-ctum	.	.	(16c\LL	.
16B\)	.	.	.	.	.	.	.	.	.	.	.	.	.	16B\)	.
(16A\	.	.	.	.	.	.	.	.	.	.	.	.	.	(16A\	.
16G\JJ)	.	.	.	.	.	.	.	.	.	.	.	.	.	16G\JJ)	.
=60	=60	=60	=60	=60	=60	=60	=60	=60	=60	=60	=60	=60	=60	=60	=60
2C/	9 7	.	(4dd\	.	(4bb\	.	2.ryy	2.ryy	2.ryy	(4dd\	No-	2.ryy	2.ryy	2C/	.
.	8 6	.	4cc\)	.	4aa\)	.	.	.	.	4cc\)	.	.	.	.	.
!LO:TX:b:i:t=Volti Subito.:mod=	!	!	!	!	!	!	!	!	!	!	!	!	!	!	!
4C#X/	7 5	.	4b/|	.	4gg\|	.	.	.	.	4b\	-men	.	.	4C#X/	.
!LO:PB:g=original	!	!	!	!	!	!	!	!	!	!	!	!	!	!	!
=61	=61	=61	=61	=61	=61	=61	=61	=61	=61	=61	=61	=61	=61	=61	=61
!	!	!	!LO:MO:null:mod=8qqcc@	!	!	!	!	!	!	!	!	!	!	!	!
.	.	.	.	.	8qqaa/	.	.	.	.	8qqcc/	.	.	.	.	.
8r	.	.	(8b/L	.	(8gg\L	.	2.ryy	2.ryy	2.ryy	4b\	e-	2.ryy	2.ryy	8r	.
8D\L|	.	.	8a/J)	.	8ff#\J)	.	.	.	.	.	.	.	.	8D\L|	.
8F#\|	.	.	4a/	.	4ff#\	.	.	.	.	4a\	-jus	.	.	8F#\|	.
8A\J|	.	.	.	.	.	.	.	.	.	.	.	.	.	8A\J|	.
!	!	!	!	!	!LO:TX:a:t=vi:mod=	!	!	!	!	!	!	!	!	!	!
(16G\LL	.	.	4r	.	4r	.	.	.	.	4r	.	.	.	(16G\LL	.
16F#\)	.	.	.	.	.	.	.	.	.	.	.	.	.	16F#\)	.
(16E\	.	.	.	.	.	.	.	.	.	.	.	.	.	(16E\	.
16D\JJ)	.	.	.	.	.	.	.	.	.	.	.	.	.	16D\JJ)	.
!	!	!	!	!	!	!	!	!	!	!LO:LB:g=original	!	!	!	!	!
=62	=62	=62	=62	=62	=62	=62	=62	=62	=62	=62	=62	=62	=62	=62	=62
!	!	!	!	!	!LO:TX:a:t=de:mod=	!	!	!	!	!	!	!	!	!	!
4C#X/	7 5	.	8r	.	8r	.	2.ryy	2.ryy	2.ryy	4.b\	et	2.ryy	2.ryy	4C#X/	.
!	!	!	!	!	!LO:MO:mod=8eeL|	!	!	!	!	!	!	!	!	!	!
.	.	.	8b\L	.	8ee\L	.	.	.	.	.	.	.	.	.	.
!	!	!	!	!	!LO:MO:mod=8gg|	!	!	!	!	!	!	!	!	!	!
4C#/	.	.	8ee\	.	8gg\	.	.	.	.	.	.	.	.	4C#/	.
!	!	!	!	!	!LO:MO:mod=8bbJ|	!	!	!	!	!	!	!	!	!	!
.	.	.	8gg\	.	8bb\J	.	.	.	.	8gg\	mi-	.	.	.	.
4C#/	.	.	8ee\	.	(32aa\KLL	.	.	.	.	8gg\	-se-	.	.	4C#/	.
.	.	.	.	.	16.gg\JJ)	.	.	.	.	.	.	.	.	.	.
.	.	.	8b\J	.	(32ff#\KLL	.	.	.	.	8b\	-ri	.	.	.	.
.	.	.	.	.	16.ee\JJ)	.	.	.	.	.	.	.	.	.	.
!	!	!	!	!	!	!	!	!	!	!	!	!	!	!LO:PB:g=original	!
=63	=63	=63	=63	=63	=63	=63	=63	=63	=63	=63	=63	=63	=63	=63	=63
.	.	.	.	.	8qqgg/	.	.	.	.	.	.	.	.	.	.
8r	.	.	4a/	.	4ff#\	.	2.ryy	2.ryy	2.ryy	8a\	cor-	2.ryy	2.ryy	8r	.
8D\L|	.	.	.	.	.	.	.	.	.	8f#/	-di-	.	.	8D\L|	.
8F#\|	.	.	4r	.	4r	.	.	.	.	4d/	-a	.	.	8F#\|	.
8A\J|	.	.	.	.	.	.	.	.	.	.	.	.	.	8A\J|	.
(16d\LL	.	.	4r	.	4r	.	.	.	.	4r	.	.	.	(16d\LL	.
16cn\)	.	.	.	.	.	.	.	.	.	.	.	.	.	16cn\)	.
(16B\	.	.	.	.	.	.	.	.	.	.	.	.	.	(16B\	.
16A\JJ)	.	.	.	.	.	.	.	.	.	.	.	.	.	16A\JJ)	.
=64	=64	=64	=64	=64	=64	=64	=64	=64	=64	=64	=64	=64	=64	=64	=64
!	!	!	!LO:TX:a:t=1.:mod=	!	!	!	!	!	!	!	!	!	!	!	!
4B\	6	.	2.r	.	8r	.	2.ryy	2.ryy	2.ryy	4.g/	e-	2.ryy	2.ryy	4B\	.
!	!	!	!	!	!LO:MO:mod=8gL|	!	!	!	!	!	!	!	!	!	!
.	.	.	.	.	8g/L	.	.	.	.	.	.	.	.	.	.
!	!	!	!	!	!LO:MO:mod=8b|	!	!	!	!	!	!	!	!	!	!
4G\	.	.	.	.	8b/	.	.	.	.	.	.	.	.	4G\	.
!	!	!	!	!	!LO:MO:mod=8ddJ|	!	!	!	!	!	!	!	!	!	!
.	.	.	.	.	8dd/J	.	.	.	.	8g/	-jus	.	.	.	.
4B\	-5r	.	.	.	(32gg\KLL	.	.	.	.	8ffn\	a	.	.	4B\	.
.	.	.	.	.	16.ffn\JJ)	.	.	.	.	.	.	.	.	.	.
.	.	.	.	.	(32ee\KLL	.	.	.	.	8ff\	pro-	.	.	.	.
.	.	.	.	.	16.dd\JJ)	.	.	.	.	.	.	.	.	.	.
=65	=65	=65	=65	=65	=65	=65	=65	=65	=65	=65	=65	=65	=65	=65	=65
4c\	.	.	8r	.	8ee\	.	2.ryy	2.ryy	2.ryy	8.ee\	-ge-	2.ryy	2.ryy	4c\	.
.	.	.	8c/L|	.	4ee\	.	.	.	.	.	.	.	.	.	.
.	.	.	.	.	.	.	.	.	.	16dd\	-ni-	.	.	.	.
.	.	.	.	.	.	.	.	.	.	8qqdd/	.	.	.	.	.
4C/	.	.	8e/|	.	.	.	.	.	.	2ee\	-e	.	.	4C/	.
.	.	.	8g/J|	.	4ee\	.	.	.	.	.	.	.	.	.	.
8E\L	6	.	(32cc\KLL	.	.	.	.	.	.	.	.	.	.	8E\L	.
.	.	.	16.b\JJ)	.	.	.	.	.	.	.	.	.	.	.	.
16F#\L	.	.	(32a/KLL	.	[8ee\	.	.	.	.	.	.	.	.	16F#\L	.
.	.	.	16.g/JJ)	.	.	.	.	.	.	.	.	.	.	.	.
16G\JJ	.	.	.	.	.	.	.	.	.	.	.	.	.	16G\JJ	.
!	!	!	!	!	!	!	!	!	!	!LO:LB:g=original	!	!	!	!	!
=66	=66	=66	=66	=66	=66	=66	=66	=66	=66	=66	=66	=66	=66	=66	=66
!	!	!	!	!	!LO:TX:t=P:problem=mixed beam	!	!	!	!	!	!	!	!	!	!
4A\	6\ 5	.	8f#/	.	8ee\L]	.	2.ryy	2.ryy	2.ryy	2f#/	in	2.ryy	2.ryy	4A\	.
!	!	!	!	!	!LO:MO:mod=8f#|	!	!	!	!	!	!	!	!	!	!
.	.	.	4f#/	.	8f#X/	.	.	.	.	.	.	.	.	.	.
!	!	!	!	!	!LO:MO:mod=8a|	!	!	!	!	!	!	!	!	!	!
4F#\	.	.	.	.	8a/	.	.	.	.	.	.	.	.	4F#\	.
!	!	!	!	!	!LO:MO:mod=8ccJ|	!	!	!	!	!	!	!	!	!	!
.	.	.	4f#/	.	8cc/J	.	.	.	.	.	.	.	.	.	.
4A\	.	.	.	.	(32ff#\KLL	.	.	.	.	4ee\	pro	.	.	4A\	.
.	.	.	.	.	16.ee\JJ)	.	.	.	.	.	.	.	.	.	.
.	.	.	[8f#/	.	(32dd\KLL	.	.	.	.	.	.	.	.	.	.
.	.	.	.	.	16.cc\JJ)	.	.	.	.	.	.	.	.	.	.
!LO:LB:g=original	!	!	!	!	!	!	!	!	!	!	!	!	!	!	!
=67	=67	=67	=67	=67	=67	=67	=67	=67	=67	=67	=67	=67	=67	=67	=67
4B\	.	.	8f#/L]	.	8dd\	.	2.ryy	2.ryy	2.ryy	8.dd\	ge-	2.ryy	2.ryy	4B\	.
.	.	.	8B/|	.	4dd\	.	.	.	.	.	.	.	.	.	.
.	.	.	.	.	.	.	.	.	.	16cc\	-ni-	.	.	.	.
.	.	.	.	.	.	.	.	.	.	8qqcc#X/	.	.	.	.	.
4BB/	.	.	8d/|	.	.	.	.	.	.	2dd\	-es	.	.	4BB/	.
.	.	.	8f#/J|	.	4dd\	.	.	.	.	.	.	.	.	.	.
8D\L	6	.	(32b/KLL	.	.	.	.	.	.	.	.	.	.	8D\L	.
.	.	.	16.a/)	.	.	.	.	.	.	.	.	.	.	.	.
16E\L	.	.	(32g/K	.	[8dd\	.	.	.	.	.	.	.	.	16E\L	.
.	.	.	16.f#/JJ)	.	.	.	.	.	.	.	.	.	.	.	.
16F#\JJ	.	.	.	.	.	.	.	.	.	.	.	.	.	16F#\JJ	.
*	*	*	*	*	*custos:dd	*	*	*	*	*	*	*	*	*	*
!	!	!	!LO:LB:g=original	!	!LO:LB:g=original	!	!	!	!	!	!	!	!	!	!
=68	=68	=68	=68	=68	=68	=68	=68	=68	=68	=68	=68	=68	=68	=68	=68
!	!	!	!	!	!LO:TX:t=P:problem=mixed beam	!	!	!	!	!	!	!	!	!	!
4G\	6 5	.	8e/	.	8dd\L]	.	2.ryy	2.ryy	2.ryy	(2e/	ti-	2.ryy	2.ryy	4G\	.
!	!	!	!	!	!LO:MO:mod=8e|	!	!	!	!	!	!	!	!	!	!
.	.	.	4e/	.	8e/	.	.	.	.	.	.	.	.	.	.
!	!	!	!	!	!LO:MO:mod=8g|	!	!	!	!	!	!	!	!	!	!
4E\	.	.	.	.	8g/	.	.	.	.	.	.	.	.	4E\	.
!	!	!	!	!	!LO:MO:mod=8bJ|	!	!	!	!	!	!	!	!	!	!
.	.	.	4e/	.	8b/J	.	.	.	.	.	.	.	.	.	.
4G\	.	.	.	.	(32ee\KLL	.	.	.	.	4dd\)	.	.	.	4G\	.
.	.	.	.	.	16.dd\JJ)	.	.	.	.	.	.	.	.	.	.
.	.	.	[8e/	.	(32cc\KLL	.	.	.	.	.	.	.	.	.	.
.	.	.	.	.	16.b\JJ)	.	.	.	.	.	.	.	.	.	.
=69	=69	=69	=69	=69	=69	=69	=69	=69	=69	=69	=69	=69	=69	=69	=69
4A\	.	.	8e/L]	.	8cc\	.	2.ryy	2.ryy	2.ryy	8.cc\	-men-	2.ryy	2.ryy	4A\	.
.	.	.	8A/|	.	4cc\	.	.	.	.	.	.	.	.	.	.
.	.	.	.	.	.	.	.	.	.	16b\	-ti-	.	.	.	.
.	.	.	.	.	.	.	.	.	.	8qqb/	.	.	.	.	.
4AA/	.	.	8c/|	.	.	.	.	.	.	2cc\	-bus	.	.	4AA/	.
.	.	.	8e/J|	.	4cc\	.	.	.	.	.	.	.	.	.	.
8C\L	6	.	(32a/KLL	.	.	.	.	.	.	.	.	.	.	8C/L	.
.	.	.	16.g/)	.	.	.	.	.	.	.	.	.	.	.	.
16D\L	.	.	(32f#/K	.	[8cc\	.	.	.	.	.	.	.	.	16D/L	.
.	.	.	16.e/JJ)	.	.	.	.	.	.	.	.	.	.	.	.
16E\JJ	.	.	.	.	.	.	.	.	.	.	.	.	.	16E/JJ	.
!	!	!	!	!	!	!	!	!	!	!	!	!	!	!LO:LB:g=original	!
=70	=70	=70	=70	=70	=70	=70	=70	=70	=70	=70	=70	=70	=70	=70	=70
!	!	!	!	!	!LO:TX:t=P:problem=mixed beam	!	!	!	!	!	!	!	!	!	!
4F#\	6 5	.	8d/	.	8cc\L]	.	2.ryy	2.ryy	2.ryy	(2d/	ti-	2.ryy	2.ryy	4F#\	.
!	!	!	!	!	!LO:MO:mod=8d|	!	!	!	!	!	!	!	!	!	!
.	.	.	4d/	.	8d/	.	.	.	.	.	.	.	.	.	.
!	!	!	!	!	!LO:MO:mod=8f#|	!	!	!	!	!	!	!	!	!	!
4D\	.	.	.	.	8f#/	.	.	.	.	.	.	.	.	4D\	.
!	!	!	!	!	!LO:MO:mod=8aJ|	!	!	!	!	!	!	!	!	!	!
.	.	.	4d/	.	8a/J	.	.	.	.	.	.	.	.	.	.
4F#\	.	.	.	.	(32dd\KLL	.	.	.	.	4dd\)	.	.	.	4F#\	.
.	.	.	.	.	16.cc\JJ)	.	.	.	.	.	.	.	.	.	.
.	.	.	8d/	.	(32b\KLL	.	.	.	.	.	.	.	.	.	.
.	.	.	.	.	16.a\JJ)	.	.	.	.	.	.	.	.	.	.
!	!	!	!	!	!LO:LB:g=original	!	!	!	!	!LO:LB:g=original	!	!	!	!	!
=71	=71	=71	=71	=71	=71	=71	=71	=71	=71	=71	=71	=71	=71	=71	=71
.	.	.	.	.	.	.	.	.	.	(16qqb\LL	.	.	.	.	.
.	.	.	.	.	.	.	.	.	.	16qqcc\JJ)	.	.	.	.	.
8r	.	.	(32g/LLL	.	(32bb\LLL	.	2.ryy	2.ryy	2.ryy	2.dd\	-men-	2.ryy	2.ryy	8r	.
.	.	.	32a/JJ	.	32ccc\JJ	.	.	.	.	.	.	.	.	.	.
.	.	.	8.b/J)	.	8.ddd\J)	.	.	.	.	.	.	.	.	.	.
8G\L|	.	.	.	.	.	.	.	.	.	.	.	.	.	8G\L|	.
8B\|	.	.	4r	.	4r	.	.	.	.	.	.	.	.	8B\|	.
8d\J|	.	.	.	.	.	.	.	.	.	.	.	.	.	8d\J|	.
(16c\LL	.	.	4r	.	4r	.	.	.	.	.	.	.	.	(16c\LL	.
16B\)	.	.	.	.	.	.	.	.	.	.	.	.	.	16B\)	.
(16A\	.	.	.	.	.	.	.	.	.	.	.	.	.	(16A\	.
16G\JJ)	.	.	.	.	.	.	.	.	.	.	.	.	.	16G\JJ)	.
!	!	!	!	!	!LO:LB:g=original	!	!	!	!	!	!	!	!	!	!
=72	=72	=72	=72	=72	=72	=72	=72	=72	=72	=72	=72	=72	=72	=72	=72
.	.	.	.	.	.	.	.	.	.	(16qqa\LL	.	.	.	.	.
.	.	.	.	.	.	.	.	.	.	16qqb\JJ	.	.	.	.	.
8r	6 5	.	(32f#/LLL	.	(32aa\LLL	.	2.ryy	2.ryy	2.ryy	2.cc\)	.	2.ryy	2.ryy	8r	.
.	.	.	32g/JJ	.	32bb\JJ	.	.	.	.	.	.	.	.	.	.
.	.	.	8.a/J)	.	8.ccc\J)	.	.	.	.	.	.	.	.	.	.
8F#\L|	.	.	.	.	.	.	.	.	.	.	.	.	.	8F#\L|	.
8A\|	.	.	4r	.	4r	.	.	.	.	.	.	.	.	8A\|	.
8c\J|	.	.	.	.	.	.	.	.	.	.	.	.	.	8c\J|	.
(16B\LL	.	.	4r	.	4r	.	.	.	.	.	.	.	.	(16B\LL	.
16A\)	.	.	.	.	.	.	.	.	.	.	.	.	.	16A\)	.
(16G\	.	.	.	.	.	.	.	.	.	.	.	.	.	(16G\	.
16F#\JJ)	.	.	.	.	.	.	.	.	.	.	.	.	.	16F#\JJ)	.
=73	=73	=73	=73	=73	=73	=73	=73	=73	=73	=73	=73	=73	=73	=73	=73
*	*	*	*	*	*tuplet	*	*	*	*	*	*	*	*	*	*
!	!	!	!LO:TUP:b:problem:łuczek zamiast numeru	!	!LO:TUP:a:problem:klamra łukowa	!	!	!	!	!LO:TUP:a:problem:klamra łukowa	!	!	!	!	!
8G\L	.	.	24g/LL	.	24bb\LL	.	2.ryy	2.ryy	2.ryy	24b\LL	.	2.ryy	2.ryy	8G\L	.
.	.	.	24f#/	.	24aa\	.	.	.	.	24a\	.	.	.	.	.
.	.	.	24g/JJ	.	24bb\JJ	.	.	.	.	24b\JJ	.	.	.	.	.
8C\J	6	.	16a/LL	.	16.ccc\LL	.	.	.	.	16cc\	-ti-	.	.	8C\J	.
.	.	.	16e/JJ	.	.	.	.	.	.	16a\	-bus	.	.	.	.
.	.	.	.	.	32aa\JJk	.	.	.	.	.	.	.	.	.	.
.	.	.	8qqg/	.	.	.	.	.	.	8qqg/	.	.	.	.	.
4D\	.	.	2f#t/	.	4dd\	.	.	.	.	2f#t/	e-	.	.	4D/	.
4DD/	.	.	.	.	4aaT\	.	.	.	.	.	.	.	.	4DD/	.
!LO:LB:g=original	!	!	!	!	!	!	!	!	!	!	!	!	!	!	!
=74	=74	=74	=74	=74	=74	=74	=74	=74	=74	=74	=74	=74	=74	=74	=74
2GG/	.	.	4g/	.	4gg\	.	2.ryy	2.ryy	2.ryy	4.g/	-um	2.ryy	2.ryy	2GG/	.
.	.	.	4r	.	4r	.	.	.	.	.	.	.	.	.	.
.	.	.	.	.	.	.	.	.	.	8g/	fe-	.	.	.	.
4r	.	.	4r	.	4r	.	.	.	.	8g/	-cit	.	.	4r	.
.	.	.	.	.	.	.	.	.	.	8g/	po-	.	.	.	.
!	!	!	!	!	!	!	!	!	!	!LO:LB:g=original	!	!	!	!	!
=75	=75	=75	=75	=75	=75	=75	=75	=75	=75	=75	=75	=75	=75	=75	=75
4r	.	.	4r	.	4r	.	2.ryy	2.ryy	2.ryy	8a\	-ten-	2.ryy	2.ryy	4r	.
.	.	.	.	.	.	.	.	.	.	8f#/	-ti-	.	.	.	.
.	.	.	.	.	.	.	.	.	.	8qqf#/	.	.	.	.	.
4B\	6	.	4dd\	.	4gg\	.	.	.	.	4g/	-am	.	.	4B\	.
4B\	.	.	4dd\	.	4gg\	.	.	.	.	4r	.	.	.	4B\	.
=76	=76	=76	=76	=76	=76	=76	=76	=76	=76	=76	=76	=76	=76	=76	=76
4c\	6	.	4ee\	.	(8aa\L	.	2.ryy	2.ryy	2.ryy	4r	.	2.ryy	2.ryy	4c\	.
.	.	.	.	.	8ff#\J)	.	.	.	.	.	.	.	.	.	.
.	.	.	.	.	8qqff#/	.	.	.	.	.	.	.	.	.	.
4B\	6	.	4dd\	.	4gg\	.	.	.	.	4g/	in	.	.	4B\	.
4r	.	.	4r	.	4r	.	.	.	.	16g/	bra-	.	.	4r	.
.	.	.	.	.	.	.	.	.	.	16g/	-chi-	.	.	.	.
.	.	.	.	.	.	.	.	.	.	8g/	-o	.	.	.	.
!	!	!	!LO:LB:g=original	!	!	!	!	!	!	!	!	!	!	!LO:LB:g=original	!
=77	=77	=77	=77	=77	=77	=77	=77	=77	=77	=77	=77	=77	=77	=77	=77
4r	.	.	4r	.	4r	.	2.ryy	2.ryy	2.ryy	(8a\L	su-	2.ryy	2.ryy	4r	.
.	.	.	.	.	.	.	.	.	.	8f#\J)	.	.	.	.	.
.	.	.	.	.	.	.	.	.	.	8qqf#/	.	.	.	.	.
4B\	6	.	4dd\	.	4gg\	.	.	.	.	4g/	-o	.	.	4B\	.
4B\	.	.	4dd\	.	4gg\	.	.	.	.	4r	.	.	.	4B\	.
=78	=78	=78	=78	=78	=78	=78	=78	=78	=78	=78	=78	=78	=78	=78	=78
4c\	6	.	4ee\	.	(8aa\L	.	2.ryy	2.ryy	2.ryy	4r	.	2.ryy	2.ryy	4c\	.
.	.	.	.	.	8ff#\J)	.	.	.	.	.	.	.	.	.	.
.	.	.	.	.	8qqff#/	.	.	.	.	.	.	.	.	.	.
4B\	6	.	4dd\	.	4gg\	.	.	.	.	4r	.	.	.	4B\	.
4r	.	.	4r	.	4r	.	.	.	.	4d/	di-	.	.	4r	.
!	!	!	!	!	!	!	!	!	!	!LO:LB:g=original	!	!	!	!	!
=79	=79	=79	=79	=79	=79	=79	=79	=79	=79	=79	=79	=79	=79	=79	=79
4r	.	.	4r	.	4r	.	2.ryy	2.ryy	2.ryy	(4.d/	-per-	2.ryy	2.ryy	4r	.
4BB/	6	.	4r	.	4r	.	.	.	.	.	.	.	.	4BB/	.
.	.	.	.	.	.	.	.	.	.	16e/LL	.	.	.	.	.
.	.	.	.	.	.	.	.	.	.	16f#/JJ)	.	.	.	.	.
4GG/	.	.	4B/|	.	4g/|	.	.	.	.	8g/	-sit	.	.	4GG/	.
.	.	.	.	.	.	.	.	.	.	8g/	su-	.	.	.	.
=80	=80	=80	=80	=80	=80	=80	=80	=80	=80	=80	=80	=80	=80	=80	=80
2.D/	6 4	.	(4B/	.	(4g/	.	2.ryy	2.ryy	2.ryy	(>4g/	-per-	2.ryy	2.ryy	2.D/	.
.	5 3	.	4A/)	.	4f#/)	.	.	.	.	4f#/)	.	.	.	.	.
.	6 4	.	4g/|	.	4b/|	.	.	.	.	4b\	-bos	.	.	.	.
=81	=81	=81	=81	=81	=81	=81	=81	=81	=81	=81	=81	=81	=81	=81	=81
2D/	6 4	.	(4g/	.	(4b/	.	2.ryy	2.ryy	2.ryy	(4b\	men-	2.ryy	2.ryy	2D/	.
.	5 3	.	4f#/)	.	4a/)	.	.	.	.	4a\)	.	.	.	.	.
4BB/	6	.	4r	.	[4dd\	.	.	.	.	[4dd\	.	.	.	4BB/	.
=82	=82	=82	=82	=82	=82	=82	=82	=82	=82	=82	=82	=82	=82	=82	=82
2C/	9	.	[2.ee\	.	4dd\]	.	2.ryy	2.ryy	2.ryy	4dd\]	.	2.ryy	2.ryy	2C/	.
!	!	!	!	!	!LO:LB:g=original	!	!	!	!	!	!	!	!	!	!
.	8	.	.	.	(16cc\KL	.	.	.	.	(16cc\KL	.	.	.	.	.
.	.	.	.	.	8.b\J)	.	.	.	.	8.b\J)	.	.	.	.	.
4C/	6	.	.	.	(16a/KL	.	.	.	.	(16a\KL	-te	.	.	4C/	.
.	5	.	.	.	8.g/J)	.	.	.	.	8.g\J)	.	.	.	.	.
!LO:LB:g=original	!	!	!	!	!	!	!	!	!	!LO:LB:g=original	!	!	!	!	!
=83	=83	=83	=83	=83	=83	=83	=83	=83	=83	=83	=83	=83	=83	=83	=83
.	.	.	.	.	8qqg/	.	.	.	.	8qqg/	.	.	.	.	.
2D/	9	.	4ee\]	.	2.f#/	.	2.ryy	2.ryy	2.ryy	2.f#/	cor-	2.ryy	2.ryy	2D/	.
.	8	.	(16dd\KL	.	.	.	.	.	.	.	.	.	.	.	.
.	7	.	8.cc\J)	.	.	.	.	.	.	.	.	.	.	.	.
4D/	.	.	(16b/KL	.	.	.	.	.	.	.	.	.	.	4D/	.
.	.	.	8.a/J)	.	.	.	.	.	.	.	.	.	.	.	.
=84	=84	=84	=84	=84	=84	=84	=84	=84	=84	=84	=84	=84	=84	=84	=84
!	!	!	!LO:TX:t=P:problem=mixed beam	!	!LO:TX:t=P:problem=mixed beam	!	!	!	!	!	!	!	!	!	!
4BB/	6	.	8g/L|	.	8g/L|	.	2.ryy	2.ryy	2.ryy	[2.g/	.	2.ryy	2.ryy	4BB/	.
.	.	.	(8gg\	.	(8bb\	.	.	.	.	.	.	.	.	.	.
4BB/	.	.	8ff#\	.	8aa\	.	.	.	.	.	.	.	.	4BB/	.
.	.	.	8gg\	.	8bb\	.	.	.	.	.	.	.	.	.	.
4BB/	.	.	8ff#\	.	8aa\	.	.	.	.	.	.	.	.	4BB/	.
.	.	.	8gg\J)	.	8bb\J)	.	.	.	.	.	.	.	.	.	.
=85	=85	=85	=85	=85	=85	=85	=85	=85	=85	=85	=85	=85	=85	=85	=85
4C/	7 5	.	8r	.	8r	.	2.ryy	2.ryy	2.ryy	2.g/_	.	2.ryy	2.ryy	4C/	.
.	.	.	8g/L|	.	8b/L|	.	.	.	.	.	.	.	.	.	.
4C/	.	.	(8f#/	.	(8a/	.	.	.	.	.	.	.	.	4C/	.
.	.	.	8g/	.	8b/	.	.	.	.	.	.	.	.	.	.
4C#X/	7 5	.	8f#/	.	8a/	.	.	.	.	.	.	.	.	4C#X/	.
.	.	.	8g/J)	.	8b/J)	.	.	.	.	.	.	.	.	.	.
!	!	!	!	!	!	!	!	!	!	!	!	!	!	!LO:LB:g=original	!
=86	=86	=86	=86	=86	=86	=86	=86	=86	=86	=86	=86	=86	=86	=86	=86
2D\	6 4	.	8g/L	.	8b/L	.	2.ryy	2.ryy	2.ryy	8g/]	.	2.ryy	2.ryy	2D/	.
.	.	.	8g/	.	8b/	.	.	.	.	8d/	-dis	.	.	.	.
.	.	.	.	.	.	.	.	.	.	16qqg\LL	.	.	.	.	.
.	.	.	.	.	.	.	.	.	.	16qqa\JJ	.	.	.	.	.
.	5 4	.	8g/	.	8a/	.	.	.	.	2aT\	su-	.	.	.	.
.	.	.	8g/	.	8a/	.	.	.	.	.	.	.	.	.	.
4DD/	7 3	.	8f#/	.	8a/	.	.	.	.	.	.	.	.	4DD/	.
.	.	.	8f#/J	.	8a/J	.	.	.	.	.	.	.	.	.	.
!	!	!	!LO:LB:g=original	!	!	!	!	!	!	!	!	!	!	!	!
=87	=87	=87	=87	=87	=87	=87	=87	=87	=87	=87	=87	=87	=87	=87	=87
!	!	!	!	!LO:MO:null:mod=f	!	!LO:MO:null:mod=f	!	!	!	!	!	!	!	!	!
4GG/	.	f	4g/	.	(32b\LLL	.	2.ryy	2.ryy	2.ryy	2g\	-i.	2.ryy	2.ryy	4GG/	f
.	.	.	.	.	32cc\JJ	.	.	.	.	.	.	.	.	.	.
!	!	!	!	!	!	!LO:MO:mod=.	!	!	!	!	!	!	!	!	!
.	.	.	.	.	8.dd\J)	f	.	.	.	.	.	.	.	.	.
.	.	.	.	.	8qqg/	.	.	.	.	.	.	.	.	.	.
8r	.	.	8r	.	2fn/	.	.	.	.	.	.	.	.	8r	.
!	!	!	!LO:MO:mod=8b|L	!	!	!	!	!	!	!	!	!	!	!	!
8GG/L|	n7r	.	8b\L	.	.	.	.	.	.	.	.	.	.	8GG/L|	.
!	!	!	!LO:MO:mod=8cc|	!LO:MO:mod=.	!	!	!	!	!	!	!	!	!	!	!
8AA/|	.	.	8cc\	f	.	.	.	.	.	4r	.	.	.	8AA/|	.
!	!	!	!LO:MO:mod=8dd|J	!	!	!	!	!	!	!	!	!	!	!	!
8BB/J|	.	.	8dd\J	.	.	.	.	.	.	.	.	.	.	8BB/J|	.
=88	=88	=88	=88	=88	=88	=88	=88	=88	=88	=88	=88	=88	=88	=88	=88
!	!	!	!	!	!	!	!	!	!	!LO:TX:a:t=7.:mod=	!	!	!	!	!
2C/	5	.	8g/|	.	8e/|	.	2.ryy	2.ryy	2.ryy	0.r	.	2.ryy	2.ryy	2C/	.
.	.	.	(4e/	.	(4cc\	.	.	.	.	.	.	.	.	.	.
.	.	.	16d/LL	.	16b/LL	.	.	.	.	.	.	.	.	.	.
.	6	.	16c/JJ)	.	16a/JJ)	.	.	.	.	.	.	.	.	.	.
4D/	#	.	8B/L	.	8g/L	.	.	.	.	.	.	.	.	4D/	.
.	.	.	8A/J	.	8f#X/J	.	.	.	.	.	.	.	.	.	.
=89	=89	=89	=89	=89	=89	=89	=89	=89	=89	=89	=89	=89	=89	=89	=89
!	!	!LO:MO:mod=!LO&colon;DY&colon;ed=brack	!	!	!	!	!	!	!	!	!	!	!	!	!LO:MO:mod=!LO&colon;DY&colon;ed=brack
!	!null	!null	!	!	!	!	!	!	!	!	!	!	!	!	!null
!	!	!LO:MO:null:mod=p	!	!LO:MO:null:mod=p	!	!LO:MO:null:mod=p	!	!	!	!	!	!	!	!	!LO:MO:null:mod=p
4G\	.	.	4G/	.	(32b\LLL	.	2.ryy	2.ryy	2.ryy	.	.	2.ryy	2.ryy	4G\	.
.	.	.	.	.	32cc\JJ	.	.	.	.	.	.	.	.	.	.
!	!	!	!	!	!	!LO:DY:mod= :t=pia	!	!	!	!	!	!	!	!	!
.	.	.	.	.	8.dd\J)	p	.	.	.	.	.	.	.	.	.
.	.	.	.	.	8qqg/	.	.	.	.	.	.	.	.	.	.
8r	.	.	8r	.	2fn/	.	.	.	.	.	.	.	.	8r	.
8GG/L|	n7r	.	8b\L	.	.	.	.	.	.	.	.	.	.	8GG/L|	.
!	!	!	!	!LO:DY:mod= :t=pia	!	!	!	!	!	!	!	!	!	!	!
8AA/|	.	.	8cc\	p	.	.	.	.	.	.	.	.	.	8AA/|	.
8BB/J|	.	.	8dd\J	.	.	.	.	.	.	.	.	.	.	8BB/J|	.
!	!	!	!	!	!LO:PB:g=original	!	!	!	!	!	!	!	!	!	!
=90	=90	=90	=90	=90	=90	=90	=90	=90	=90	=90	=90	=90	=90	=90	=90
2C/	3	.	8g/|	.	8e/|	.	2.ryy	2.ryy	2.ryy	.	.	2.ryy	2.ryy	2C/	.
.	.	.	(4cc\	.	(4ee\	.	.	.	.	.	.	.	.	.	.
.	.	.	16b/LL	.	16dd\LL	.	.	.	.	.	.	.	.	.	.
.	6	.	16a/JJ)	.	16cc\JJ)	.	.	.	.	.	.	.	.	.	.
4D/	#	.	8g/L	.	8b/L	.	.	.	.	.	.	.	.	4D/	.
.	.	.	8f#/J	.	8a/J	.	.	.	.	.	.	.	.	.	.
!LO:LB:g=original	!	!	!	!	!	!	!	!	!	!	!	!	!	!	!
=91	=91	=91	=91	=91	=91	=91	=91	=91	=91	=91	=91	=91	=91	=91	=91
8r	.	.	(32g/LLL	f	(32b\LLL	f	2.ryy	2.ryy	2.ryy	.	.	2.ryy	2.ryy	8r	.
.	.	.	32a/JJ	.	32cc\JJ	.	.	.	.	.	.	.	.	.	.
.	.	.	8.b/J)	.	8.dd\J)	.	.	.	.	.	.	.	.	.	.
!	!	!LO:MO:mod=!LO&colon;DY&colon;ed=brack	!	!	!	!	!	!	!	!	!	!	!	!	!LO:MO:mod=!LO&colon;DY&colon;ed=brack
!	!	!null	!	!	!	!	!	!	!	!	!	!	!	!	!null
!	!	!LO:MO:null:mod=f	!	!	!	!	!	!	!	!	!	!	!	!	!LO:MO:null:mod=f
8G\L|	.	.	.	.	.	.	.	.	.	.	.	.	.	8G\L|	.
8B\|	.	.	4r	.	4r	.	.	.	.	.	.	.	.	8B\|	.
8d\J|	.	.	.	.	.	.	.	.	.	.	.	.	.	8d\J|	.
(16c\LL	.	.	4r	.	4r	.	.	.	.	.	.	.	.	(16c\LL	.
16B\)	.	.	.	.	.	.	.	.	.	.	.	.	.	16B\)	.
(16A\	.	.	.	.	.	.	.	.	.	.	.	.	.	(16A\	.
16G\JJ)	.	.	.	.	.	.	.	.	.	.	.	.	.	16G\JJ)	.
=92	=92	=92	=92	=92	=92	=92	=92	=92	=92	=92	=92	=92	=92	=92	=92
8r	.	.	(32f#/LLL	.	(32a\LLL	.	2.ryy	2.ryy	2.ryy	1.r	.	2.ryy	2.ryy	8r	.
.	.	.	32g/JJ	.	32b\JJ	.	.	.	.	.	.	.	.	.	.
.	.	.	8.a/J)	.	8.cc\J)	.	.	.	.	.	.	.	.	.	.
8F#\L|	6 5	.	.	.	.	.	.	.	.	.	.	.	.	8F#\L|	.
8A\|	.	.	4r	.	4r	.	.	.	.	.	.	.	.	8A\|	.
8c\J|	.	.	.	.	.	.	.	.	.	.	.	.	.	8c\J|	.
(16B\LL	.	.	4r	.	4r	.	.	.	.	.	.	.	.	(16B\LL	.
16A\)	.	.	.	.	.	.	.	.	.	.	.	.	.	16A\)	.
(16G\	.	.	.	.	.	.	.	.	.	.	.	.	.	(16G\	.
16F#\JJ)	.	.	.	.	.	.	.	.	.	.	.	.	.	16F#\JJ)	.
*	*	*	*custos:g	*	*	*	*	*	*	*	*	*	*	*	*
!	!	!	!LO:LB:g=original	!	!	!	!	!	!	!	!	!	!	!LO:LB:g=original	!
=93	=93	=93	=93	=93	=93	=93	=93	=93	=93	=93	=93	=93	=93	=93	=93
!	!	!	!LO:TUP:b:problem:łuczek zamiast numeru	!	!LO:TUP:b:problem:łuczek zamiast numeru	!	!	!	!	!	!	!	!	!	!
8G\L	.	.	24g/LL	.	24b/LL	.	2.ryy	2.ryy	2.ryy	.	.	2.ryy	2.ryy	8G\L	.
.	.	.	24f#/	.	24a/	.	.	.	.	.	.	.	.	.	.
.	.	.	24g/JJ	.	24b/JJ	.	.	.	.	.	.	.	.	.	.
8C\J	6	.	16a/LL	.	16.cc\LL	.	.	.	.	.	.	.	.	8C\J	.
.	.	.	16e/JJ	.	.	.	.	.	.	.	.	.	.	.	.
.	.	.	.	.	32a\JJk	.	.	.	.	.	.	.	.	.	.
.	.	.	8qqg/	.	.	.	.	.	.	.	.	.	.	.	.
4D\	.	.	2f#t/	.	4d/	.	.	.	.	.	.	.	.	4D/	.
4DD/	.	.	.	.	4aaT\	.	.	.	.	.	.	.	.	4DD/	.
=94	=94	=94	=94	=94	=94	=94	=94	=94	=94	=94	=94	=94	=94	=94	=94
2GG/	.	.	4g/	.	4gg\	.	2.ryy	2.ryy	2.ryy	2.r	.	2.ryy	2.ryy	2GG/	.
.	.	.	4G/	.	4G/	.	.	.	.	.	.	.	.	.	.
4r	.	.	4r	.	4r	.	.	.	.	.	.	.	.	4r	.
==	==	==	==	==	==	==	==	==	==	==	==	==	==	==	==
*-	*-	*-	*-	*-	*-	*-	*-	*-	*-	*-	*-	*-	*-	*-	*-
!!!system-decoration: <s1>[(g1)][(g2)][(g3)]<s10>
!!!RDF**kern: > = above
!!!RDF**kern: | = vertical stroke
!!LO:MO:ori
!!!RDF**dynam: p = "po."
!!!RDF**dynam: f = "for"
!!LO:MO:mod
!! !!!RDF**kern: @ = marked note, color=grey
!!LO:MO:end
!!!ENC: Berenika Jozajtis
!!!END: 2022-04-19
!!!ENC: Andrzej Kubiczek
!!!END: 2022-04-29
!!!ENC-modern: Andrzej Kubiczek
!!!END-modern: 2022-09-30
!!!filter-modern: shed -k -e "s/([^a-gA-Gn#X-])[<>]/$1/g" | shed -e "s/^(X?)tuplet$/$1TUPLET/I" | shed -e "s/^custos:/Xcustos:/I" | shed -e "s/^(\d+[\/\\]right)/$1yy/I" | shed -e "s/TX(.*):t=P:/tx$1:t=P:/LG" | shed -e "s/(LO:DY.*):t=(.*$)/$1:T=$2/L; s/LO:DY(.*)(:a:)(.*)/LO:dy:$1$2$3/L; s/LO:DY(.*)(:b:)(.*)/LO:dy:$1$2$3/L; s/LO:DY(.*)(:rj:)(.*)/LO:dy:$1$2$3/L"| sic -sq | modori -m | autostem -r | tie -s | humtr -p | shed -e "s/yy//"
!!!YEC: Copyright 2022 Narodowy Instytut Fryderyka Chopina (https://polishscores.org)
!!!YEM: License CC-BY-4.0 (https://creativecommons.org/licenses/by/4.0)
